;FLAVOR:Marlin
;TIME:4690
;Filament used: 2.63673m
;Layer height: 0.16
;MINX:58.429
;MINY:40.113
;MINZ:0.2
;MAXX:160.428
;MAXY:92.113
;MAXZ:8.92
;Generated with Creality Slicer 4.8.2-205
M140 S60
M105
M190 S60
M104 S200
M105
M109 S200
M82 ;absolute extrusion mode

G28 ;Home

G92 E0 ;Reset Extruder
G1 Z2.0 F3000 ;Move Z Axis up
G1 X10.1 Y20 Z0.28 F5000.0 ;Move to start position
G1 X10.1 Y200.0 Z0.28 F1500.0 E15 ;Draw the first line
G1 X10.4 Y200.0 Z0.28 F5000.0 ;Move to side a little
G1 X10.4 Y20 Z0.28 F1500.0 E30 ;Draw the second line
G92 E0 ;Reset Extruder
G1 Z2.0 F3000 ;Move Z Axis up

G92 E0
G92 E0
G1 F2400 E-0.8
;LAYER_COUNT:60
;LAYER:0
M107
G0 F6000 X61.04 Y45.319 Z0.2
;TYPE:SKIRT
G1 F2400 E0
G1 F1200 X61.244 Y45.054 E0.01112
G1 X62.119 Y44.049 E0.05544
G1 X62.485 Y43.677 E0.0728
G1 X63.171 Y43.037 E0.104
G1 X63.908 Y42.458 E0.13518
G1 X64.693 Y41.944 E0.16639
G1 X65.518 Y41.499 E0.19756
G1 X66.782 Y40.979 E0.24302
G1 X67.352 Y40.785 E0.26305
G1 X68.532 Y40.455 E0.3038
G1 X68.791 Y40.398 E0.31262
G1 X69.714 Y40.236 E0.34379
G1 X70.273 Y40.176 E0.36249
G1 X70.36 Y40.169 E0.36539
G1 X71.026 Y40.136 E0.38757
G1 X72.097 Y40.115 E0.4232
G1 X72.313 Y40.113 E0.43038
G1 X146.791 Y40.113 E2.90753
G1 X147.502 Y40.122 E2.93118
G1 X148.161 Y40.151 E2.95312
G1 X148.617 Y40.185 E2.96833
G1 X149.548 Y40.295 E2.99951
G1 X150.809 Y40.575 E3.04247
G1 X151.171 Y40.678 E3.05499
G1 X152.062 Y40.973 E3.08621
G1 X152.897 Y41.33 E3.11641
G1 X153.115 Y41.434 E3.12445
G1 X153.787 Y41.783 E3.14963
G1 X153.934 Y41.866 E3.15525
G1 X154.731 Y42.362 E3.18647
G1 X155.378 Y42.84 E3.21322
G1 X155.643 Y43.051 E3.22449
G1 X155.919 Y43.278 E3.23638
G1 X156.12 Y43.449 E3.24515
G1 X156.808 Y44.086 E3.27634
G1 X157.439 Y44.78 E3.30754
G1 X158.008 Y45.525 E3.33871
G1 X158.653 Y46.568 E3.3795
G1 X158.88 Y46.985 E3.39529
G1 X159.037 Y47.284 E3.40653
G1 X159.234 Y47.674 E3.42106
G1 X159.621 Y48.529 E3.45227
G1 X159.934 Y49.413 E3.48346
G1 X160.17 Y50.321 E3.51467
G1 X160.328 Y51.245 E3.54585
G1 X160.415 Y52.458 E3.58629
G1 X160.427 Y53.207 E3.61121
G1 X160.428 Y78.421 E4.44983
G1 X160.417 Y79.277 E4.4783
G1 X160.394 Y79.845 E4.49721
G1 X160.386 Y79.966 E4.50124
G1 X160.335 Y80.519 E4.51971
G1 X160.311 Y80.724 E4.52658
G1 X160.098 Y81.944 E4.56777
G1 X160.018 Y82.287 E4.57948
G1 X159.784 Y83.137 E4.60881
G1 X159.636 Y83.6 E4.62497
G1 X159.312 Y84.481 E4.6562
G1 X158.915 Y85.33 E4.68737
G1 X158.447 Y86.143 E4.71857
G1 X157.911 Y86.913 E4.74977
G1 X157.426 Y87.507 E4.77528
G1 X156.78 Y88.187 E4.80647
G1 X156.203 Y88.707 E4.83231
G1 X155.929 Y88.937 E4.84421
G1 X155.682 Y89.138 E4.8548
G1 X155.294 Y89.445 E4.87125
G1 X154.535 Y89.995 E4.90243
G1 X153.578 Y90.561 E4.93941
G1 X153.496 Y90.604 E4.94249
G1 X152.976 Y90.859 E4.96175
G1 X152.793 Y90.943 E4.96845
G1 X151.755 Y91.357 E5.00562
G1 X151.626 Y91.401 E5.01015
G1 X151.033 Y91.585 E5.0308
G1 X150.75 Y91.664 E5.04058
G1 X149.836 Y91.877 E5.07179
G1 X148.862 Y92.017 E5.10452
G1 X148.596 Y92.043 E5.11341
G1 X147.722 Y92.093 E5.14252
G1 X146.514 Y92.113 E5.18271
G1 X71.88 Y92.112 E7.66505
G1 X71.182 Y92.102 E7.68826
G1 X70.566 Y92.076 E7.70877
G1 X70.325 Y92.059 E7.71681
G1 X69.868 Y92.017 E7.73207
G1 X69.415 Y91.966 E7.74723
G1 X68.489 Y91.821 E7.77841
G1 X67.578 Y91.598 E7.8096
G1 X66.689 Y91.299 E7.8408
G1 X65.829 Y90.924 E7.872
G1 X65.004 Y90.478 E7.90319
G1 X64.22 Y89.963 E7.93439
G1 X63.681 Y89.549 E7.957
G1 X63.082 Y89.059 E7.98274
G1 X62.382 Y88.435 E8.01393
G1 X61.684 Y87.691 E8.04786
G1 X61.408 Y87.368 E8.06199
G1 X60.83 Y86.63 E8.09317
G1 X60.317 Y85.845 E8.12436
G1 X59.937 Y85.15 E8.1507
G1 X59.715 Y84.707 E8.16718
G1 X59.331 Y83.852 E8.19836
G1 X58.985 Y82.846 E8.23374
G1 X58.94 Y82.691 E8.23911
G1 X58.717 Y81.78 E8.2703
G1 X58.588 Y80.981 E8.29722
G1 X58.521 Y80.442 E8.31529
G1 X58.442 Y79.413 E8.34961
G1 X58.434 Y79.145 E8.35853
G1 X58.429 Y78.817 E8.36944
G1 X58.429 Y53.535 E9.21032
G1 X58.439 Y52.838 E9.23351
G1 X58.498 Y51.852 E9.26636
G1 X58.521 Y51.632 E9.27372
G1 X58.658 Y50.704 E9.30492
G1 X58.857 Y49.851 E9.33405
G1 X58.921 Y49.619 E9.34206
G1 X59.231 Y48.666 E9.37539
G1 X59.341 Y48.374 E9.38577
G1 X59.709 Y47.511 E9.41697
G1 X59.967 Y47.006 E9.43583
G1 X60.088 Y46.783 E9.44427
G1 X60.57 Y45.978 E9.47548
G1 X61.04 Y45.319 E9.5024
G0 F6000 X61.357 Y45.563
G1 F1200 X61.561 Y45.298 E9.51352
G1 X62.404 Y44.33 E9.55621
G1 X62.77 Y43.958 E9.57357
G1 X63.444 Y43.33 E9.60421
G1 X64.169 Y42.763 E9.63482
G1 X64.941 Y42.262 E9.66543
G1 X65.754 Y41.829 E9.69607
G1 X66.911 Y41.357 E9.73763
G1 X67.481 Y41.163 E9.75766
G1 X68.618 Y40.846 E9.79692
G1 X68.877 Y40.789 E9.80574
G1 X69.784 Y40.63 E9.83636
G1 X70.305 Y40.575 E9.85379
G1 X70.392 Y40.568 E9.85669
G1 X71.034 Y40.536 E9.87807
G1 X72.105 Y40.515 E9.9137
G1 X72.313 Y40.513 E9.92062
G1 X146.791 Y40.513 E12.39777
G1 X147.497 Y40.522 E12.42125
G1 X148.131 Y40.55 E12.44236
G1 X148.587 Y40.584 E12.45757
G1 X149.501 Y40.693 E12.48818
G1 X150.7 Y40.96 E12.52904
G1 X151.062 Y41.063 E12.54156
G1 X151.936 Y41.353 E12.57218
G1 X152.725 Y41.691 E12.60073
G1 X152.943 Y41.795 E12.60877
G1 X153.591 Y42.132 E12.63306
G1 X153.738 Y42.215 E12.63867
G1 X154.519 Y42.702 E12.66929
G1 X155.129 Y43.153 E12.69452
G1 X155.394 Y43.364 E12.70578
G1 X155.66 Y43.582 E12.71722
G1 X155.861 Y43.753 E12.726
G1 X156.535 Y44.38 E12.75662
G1 X157.153 Y45.062 E12.78723
G1 X157.709 Y45.796 E12.81786
G1 X158.302 Y46.759 E12.85547
G1 X158.529 Y47.176 E12.87126
G1 X158.68 Y47.465 E12.88211
G1 X158.877 Y47.855 E12.89664
G1 X159.256 Y48.694 E12.92726
G1 X159.561 Y49.563 E12.95789
G1 X159.789 Y50.454 E12.98848
G1 X159.939 Y51.363 E13.01912
G1 X160.015 Y52.464 E13.05583
G1 X160.028 Y53.383 E13.0864
G1 X160.027 Y78.573 E13.92422
G1 X160.017 Y79.271 E13.94744
G1 X159.995 Y79.818 E13.96565
G1 X159.987 Y79.939 E13.96968
G1 X159.938 Y80.473 E13.98752
G1 X159.914 Y80.678 E13.99438
G1 X159.709 Y81.853 E14.03405
G1 X159.629 Y82.196 E14.04577
G1 X159.403 Y83.015 E14.07402
G1 X159.255 Y83.478 E14.09019
G1 X158.937 Y84.342 E14.12081
G1 X158.545 Y85.175 E14.15143
G1 X158.082 Y85.971 E14.18206
G1 X157.552 Y86.724 E14.21269
G1 X157.124 Y87.244 E14.23509
G1 X156.49 Y87.911 E14.2657
G1 X155.946 Y88.401 E14.29005
G1 X155.672 Y88.631 E14.30195
G1 X155.434 Y88.825 E14.31216
G1 X155.046 Y89.132 E14.32861
G1 X154.3 Y89.671 E14.35922
G1 X153.392 Y90.207 E14.39429
G1 X153.31 Y90.25 E14.39737
G1 X152.809 Y90.496 E14.41594
G1 X152.626 Y90.58 E14.42263
G1 X151.626 Y90.978 E14.45843
G1 X151.497 Y91.022 E14.46297
G1 X150.925 Y91.2 E14.48289
G1 X150.642 Y91.279 E14.49266
G1 X149.745 Y91.487 E14.52329
G1 X148.823 Y91.619 E14.55427
G1 X148.557 Y91.645 E14.56316
G1 X147.715 Y91.693 E14.59121
G1 X146.514 Y91.713 E14.63116
G1 X71.886 Y91.712 E17.1133
G1 X71.188 Y91.702 E17.13651
G1 X70.594 Y91.677 E17.15629
G1 X70.353 Y91.66 E17.16432
G1 X69.913 Y91.619 E17.17902
G1 X69.46 Y91.568 E17.19418
G1 X68.551 Y91.426 E17.22478
G1 X67.657 Y91.205 E17.25541
G1 X66.786 Y90.907 E17.28603
G1 X65.944 Y90.535 E17.31665
G1 X65.137 Y90.091 E17.34728
G1 X64.372 Y89.579 E17.3779
G1 X63.934 Y89.24 E17.39632
G1 X63.335 Y88.75 E17.42206
G1 X62.649 Y88.136 E17.45268
G1 X61.988 Y87.431 E17.48482
G1 X61.712 Y87.108 E17.49895
G1 X61.145 Y86.383 E17.52957
G1 X60.643 Y85.611 E17.5602
G1 X60.294 Y84.971 E17.58444
G1 X60.072 Y84.528 E17.60092
G1 X59.696 Y83.688 E17.63153
G1 X59.369 Y82.734 E17.66507
G1 X59.324 Y82.579 E17.67044
G1 X59.106 Y81.685 E17.70105
G1 X58.985 Y80.932 E17.72641
G1 X58.918 Y80.393 E17.74448
G1 X58.842 Y79.401 E17.77757
G1 X58.834 Y79.133 E17.78649
G1 X58.829 Y78.817 E17.797
G1 X58.829 Y53.541 E18.63768
G1 X58.839 Y52.844 E18.66087
G1 X58.895 Y51.894 E18.69252
G1 X58.918 Y51.674 E18.69988
G1 X59.054 Y50.763 E18.73051
G1 X59.243 Y49.957 E18.75805
G1 X59.307 Y49.725 E18.76605
G1 X59.606 Y48.807 E18.79816
G1 X59.716 Y48.515 E18.80854
G1 X60.077 Y47.669 E18.83913
G1 X60.318 Y47.197 E18.85676
G1 X60.439 Y46.974 E18.8652
G1 X60.913 Y46.184 E18.89584
G1 X61.357 Y45.563 E18.92123
G0 F6000 X61.674 Y45.807
G1 F1200 X61.878 Y45.542 E18.93236
G1 X62.689 Y44.61 E18.97345
G1 X63.055 Y44.238 E18.9908
G1 X63.716 Y43.623 E19.02083
G1 X64.429 Y43.069 E19.05086
G1 X65.189 Y42.58 E19.08092
G1 X65.988 Y42.16 E19.11095
G1 X67.04 Y41.736 E19.14867
G1 X67.61 Y41.542 E19.1687
G1 X68.704 Y41.236 E19.20648
G1 X68.963 Y41.179 E19.2153
G1 X69.852 Y41.025 E19.24531
G1 X70.337 Y40.974 E19.26153
G1 X70.424 Y40.967 E19.26443
G1 X71.042 Y40.936 E19.28501
G1 X72.113 Y40.915 E19.32064
G1 X72.313 Y40.913 E19.32729
G1 X146.791 Y40.913 E21.80444
G1 X147.491 Y40.922 E21.82773
G1 X148.101 Y40.949 E21.84803
G1 X148.557 Y40.983 E21.86324
G1 X149.454 Y41.09 E21.89329
G1 X150.59 Y41.344 E21.932
G1 X150.952 Y41.447 E21.94452
G1 X151.809 Y41.733 E21.97457
G1 X152.553 Y42.052 E22.0015
G1 X152.771 Y42.156 E22.00953
G1 X153.394 Y42.48 E22.03289
G1 X153.541 Y42.563 E22.0385
G1 X154.307 Y43.041 E22.06853
G1 X154.88 Y43.465 E22.09224
G1 X155.145 Y43.676 E22.10351
G1 X155.4 Y43.887 E22.11451
G1 X155.601 Y44.058 E22.12329
G1 X156.263 Y44.673 E22.15335
G1 X156.867 Y45.344 E22.18337
G1 X157.409 Y46.066 E22.2134
G1 X157.951 Y46.95 E22.24789
G1 X158.178 Y47.367 E22.26368
G1 X158.323 Y47.645 E22.27411
G1 X158.52 Y48.035 E22.28864
G1 X158.892 Y48.858 E22.31868
G1 X159.188 Y49.711 E22.34871
G1 X159.409 Y50.587 E22.37876
G1 X159.55 Y51.479 E22.4088
G1 X159.615 Y52.471 E22.44186
G1 X159.628 Y53.383 E22.4722
G1 X159.627 Y78.567 E23.30982
G1 X159.617 Y79.265 E23.33304
G1 X159.596 Y79.792 E23.35058
G1 X159.588 Y79.913 E23.35461
G1 X159.541 Y80.426 E23.37175
G1 X159.517 Y80.631 E23.37861
G1 X159.319 Y81.762 E23.4168
G1 X159.239 Y82.105 E23.42852
G1 X159.022 Y82.894 E23.45573
G1 X158.874 Y83.357 E23.4719
G1 X158.561 Y84.204 E23.50193
G1 X158.174 Y85.02 E23.53197
G1 X157.717 Y85.799 E23.56201
G1 X157.193 Y86.534 E23.59203
G1 X156.823 Y86.981 E23.61133
G1 X156.2 Y87.635 E23.64137
G1 X155.689 Y88.094 E23.66422
G1 X155.415 Y88.324 E23.67612
G1 X155.186 Y88.511 E23.68595
G1 X154.798 Y88.818 E23.70241
G1 X154.066 Y89.346 E23.73243
G1 X153.206 Y89.852 E23.76561
G1 X153.124 Y89.895 E23.76869
G1 X152.642 Y90.132 E23.78656
G1 X152.459 Y90.216 E23.79326
G1 X151.497 Y90.6 E23.82771
G1 X151.368 Y90.644 E23.83224
G1 X150.817 Y90.814 E23.85142
G1 X150.534 Y90.893 E23.86119
G1 X149.655 Y91.097 E23.8912
G1 X148.784 Y91.221 E23.92047
G1 X148.518 Y91.247 E23.92935
G1 X147.707 Y91.293 E23.95637
G1 X146.514 Y91.313 E23.99606
G1 X71.892 Y91.312 E26.47799
G1 X71.194 Y91.302 E26.50121
G1 X70.622 Y91.278 E26.52025
G1 X70.381 Y91.261 E26.52829
G1 X69.958 Y91.222 E26.54242
G1 X69.505 Y91.171 E26.55758
G1 X68.613 Y91.03 E26.58762
G1 X67.737 Y90.811 E26.61765
G1 X66.883 Y90.516 E26.6477
G1 X66.059 Y90.146 E26.67774
G1 X65.272 Y89.704 E26.70776
G1 X64.188 Y88.93 E26.75207
G1 X63.589 Y88.44 E26.77781
G1 X62.916 Y87.838 E26.80784
G1 X62.292 Y87.171 E26.83822
G1 X62.016 Y86.848 E26.85235
G1 X61.461 Y86.136 E26.88237
G1 X60.97 Y85.378 E26.91241
G1 X60.652 Y84.792 E26.93459
G1 X60.43 Y84.349 E26.95107
G1 X60.061 Y83.524 E26.98113
G1 X59.753 Y82.623 E27.0128
G1 X59.708 Y82.468 E27.01817
G1 X59.495 Y81.59 E27.04822
G1 X59.382 Y80.882 E27.07206
G1 X59.315 Y80.343 E27.09013
G1 X59.242 Y79.389 E27.12195
G1 X59.234 Y79.121 E27.13087
G1 X59.229 Y78.817 E27.14098
G1 X59.229 Y53.547 E27.98146
G1 X59.239 Y52.85 E28.00465
G1 X59.293 Y51.935 E28.03513
G1 X59.316 Y51.715 E28.04249
G1 X59.45 Y50.822 E28.07252
G1 X59.628 Y50.064 E28.09842
G1 X59.692 Y49.832 E28.10643
G1 X59.98 Y48.948 E28.13735
G1 X60.09 Y48.656 E28.14773
G1 X60.445 Y47.826 E28.17775
G1 X60.67 Y47.387 E28.19416
G1 X60.791 Y47.164 E28.2026
G1 X61.256 Y46.391 E28.2326
G1 X61.674 Y45.807 E28.25649
G1 F2400 E27.45649
G0 F6000 X73.228 Y58.848
G0 X73.228 Y59.313
G1 F2400 E28.25649
G1 F1200 X85.977 Y59.313 E28.68052
G1 X86.527 Y59.273 E28.69886
G1 X87.065 Y59.154 E28.71719
G1 X87.58 Y58.958 E28.73552
G1 X88.061 Y58.69 E28.75383
G1 X88.664 Y58.2 E28.77967
G1 X89.015 Y57.849 E28.79618
G1 X89.375 Y57.432 E28.81451
G1 X89.672 Y56.968 E28.83283
G1 X89.898 Y56.465 E28.85117
G1 X90.049 Y55.935 E28.8695
G1 X90.128 Y55.162 E28.89534
G1 X90.128 Y54.913 E28.90363
G1 X142.078 Y54.913 E30.63149
G1 X142.078 Y77.313 E31.37652
G1 X90.128 Y77.313 E33.10438
G1 X90.128 Y77.064 E33.11266
G1 X90.088 Y76.514 E33.131
G1 X89.969 Y75.976 E33.14933
G1 X89.773 Y75.461 E33.16766
G1 X89.505 Y74.98 E33.18597
G1 X89.015 Y74.377 E33.21181
G1 X88.664 Y74.026 E33.22832
G1 X88.247 Y73.666 E33.24665
G1 X87.783 Y73.369 E33.26497
G1 X87.28 Y73.143 E33.28331
G1 X86.75 Y72.992 E33.30164
G1 X85.977 Y72.913 E33.32749
G1 X73.228 Y72.913 E33.75152
G1 X73.228 Y59.313 E34.20386
G0 F6000 X72.879 Y58.913
G1 F1200 X85.977 Y58.913 E34.6395
G1 X86.497 Y58.873 E34.65684
G1 X87.004 Y58.754 E34.67417
G1 X87.487 Y58.559 E34.69149
G1 X87.935 Y58.293 E34.70882
G1 X88.381 Y57.917 E34.72822
G1 X88.732 Y57.566 E34.74473
G1 X89.071 Y57.17 E34.76207
G1 X89.346 Y56.728 E34.77938
G1 X89.55 Y56.248 E34.79673
G1 X89.678 Y55.743 E34.81406
G1 X89.728 Y55.162 E34.83345
G1 X89.728 Y54.513 E34.85504
G1 X142.478 Y54.513 E36.60951
G1 X142.478 Y77.713 E37.38115
G1 X89.728 Y77.713 E39.13562
G1 X89.728 Y77.064 E39.1572
G1 X89.688 Y76.544 E39.17455
G1 X89.569 Y76.037 E39.19187
G1 X89.374 Y75.554 E39.2092
G1 X89.108 Y75.106 E39.22653
G1 X88.732 Y74.66 E39.24593
G1 X88.381 Y74.309 E39.26244
G1 X87.985 Y73.97 E39.27978
G1 X87.543 Y73.695 E39.29709
G1 X87.063 Y73.491 E39.31444
G1 X86.558 Y73.363 E39.33176
G1 X85.977 Y73.313 E39.35116
G1 X72.879 Y73.313 E39.7868
G1 X72.828 Y73.317 E39.7885
G1 X72.828 Y58.909 E40.26771
G1 X72.879 Y58.913 E40.26942
G0 F6000 X72.879 Y58.513
G1 F1200 X85.977 Y58.513 E40.70506
G1 X86.465 Y58.473 E40.72134
G1 X86.94 Y58.354 E40.73763
G1 X87.389 Y58.16 E40.7539
G1 X87.801 Y57.895 E40.77019
G1 X88.098 Y57.634 E40.78334
G1 X88.449 Y57.283 E40.79985
G1 X88.766 Y56.91 E40.81613
G1 X89.018 Y56.49 E40.83242
G1 X89.198 Y56.035 E40.8487
G1 X89.302 Y55.557 E40.86497
G1 X89.328 Y55.162 E40.87813
G1 X89.328 Y54.113 E40.91302
G1 X142.878 Y54.113 E42.6941
G1 X142.878 Y78.113 E43.49235
G1 X89.328 Y78.113 E45.27343
G1 X89.328 Y77.064 E45.30832
G1 X89.288 Y76.576 E45.3246
G1 X89.169 Y76.101 E45.34089
G1 X88.975 Y75.652 E45.35716
G1 X88.71 Y75.24 E45.37345
G1 X88.449 Y74.943 E45.3866
G1 X88.098 Y74.592 E45.40311
G1 X87.725 Y74.275 E45.41939
G1 X87.305 Y74.023 E45.43568
G1 X86.85 Y73.843 E45.45196
G1 X86.372 Y73.739 E45.46823
G1 X85.977 Y73.713 E45.48139
G1 X72.879 Y73.713 E45.91704
G1 X72.428 Y73.75 E45.93209
G1 X72.428 Y58.475 E46.44013
G1 X72.484 Y58.487 E46.44204
G1 X72.879 Y58.513 E46.45521
G0 F6000 X72.879 Y58.113
G1 F1200 X85.977 Y58.113 E46.89085
G1 X86.431 Y58.073 E46.90601
G1 X86.871 Y57.955 E46.92116
G1 X87.283 Y57.761 E46.9363
G1 X87.815 Y57.351 E46.95864
G1 X88.166 Y57 E46.97515
G1 X88.459 Y56.651 E46.99031
G1 X88.686 Y56.256 E47.00546
G1 X88.841 Y55.828 E47.0206
G1 X88.928 Y55.162 E47.04294
G1 X88.928 Y53.713 E47.09114
G1 X143.278 Y53.713 E48.89882
G1 X143.278 Y78.513 E49.72367
G1 X88.928 Y78.513 E51.53136
G1 X88.928 Y77.064 E51.57956
G1 X88.888 Y76.61 E51.59472
G1 X88.77 Y76.17 E51.60987
G1 X88.576 Y75.758 E51.62501
G1 X88.166 Y75.226 E51.64735
G1 X87.815 Y74.875 E51.66386
G1 X87.466 Y74.582 E51.67902
G1 X87.071 Y74.355 E51.69417
G1 X86.643 Y74.2 E51.70931
G1 X85.977 Y74.113 E51.73165
G1 X72.879 Y74.113 E52.16729
G1 X72.425 Y74.153 E52.18245
G1 X72.028 Y74.259 E52.19612
G1 X72.028 Y57.959 E52.73826
G1 X72.213 Y58.026 E52.7448
G1 X72.879 Y58.113 E52.76714
G0 F6000 X72.879 Y57.713
G1 F1200 X85.977 Y57.713 E53.20278
G1 X86.394 Y57.673 E53.21672
G1 X86.796 Y57.555 E53.23065
G1 X87.168 Y57.362 E53.24459
G1 X87.533 Y57.069 E53.26016
G1 X87.884 Y56.718 E53.27667
G1 X88.15 Y56.394 E53.29061
G1 X88.351 Y56.027 E53.30453
G1 X88.478 Y55.627 E53.31849
G1 X88.528 Y55.162 E53.33404
G1 X88.528 Y53.313 E53.39554
G1 X143.687 Y53.313 E55.23014
G1 X143.678 Y53.399 E55.23301
G1 X143.678 Y78.827 E56.07875
G1 X143.686 Y78.913 E56.08162
G1 X88.528 Y78.913 E57.91618
G1 X88.528 Y77.064 E57.97768
G1 X88.488 Y76.647 E57.99162
G1 X88.37 Y76.245 E58.00555
G1 X88.177 Y75.873 E58.01949
G1 X87.884 Y75.508 E58.03506
G1 X87.533 Y75.157 E58.05157
