;FLAVOR:Marlin
;TIME:5538
;Filament used: 3.07286m
;Layer height: 0.2
;MINX:62.2
;MINY:45.552
;MINZ:0.2
;MAXX:157.8
;MAXY:91.198
;MAXZ:11.6
;Generated with Creality Slicer 4.8.2-205
M140 S40
M105
M190 S40
M104 S200
M105
M109 S200
M82 ;absolute extrusion mode

G28 ;Home

G92 E0 ;Reset Extruder
G1 Z2.0 F3000 ;Move Z Axis up
G1 X10.1 Y20 Z0.28 F5000.0 ;Move to start position
G1 X10.1 Y200.0 Z0.28 F1500.0 E15 ;Draw the first line
G1 X10.4 Y200.0 Z0.28 F5000.0 ;Move to side a little
G1 X10.4 Y20 Z0.28 F1500.0 E30 ;Draw the second line
G92 E0 ;Reset Extruder
G1 Z2.0 F3000 ;Move Z Axis up

G92 E0
G92 E0
G1 F2400 E-0.8
;LAYER_COUNT:58
;LAYER:0
M107
G0 F6000 X64.303 Y49.34 Z0.2
;TYPE:SKIRT
G1 F2400 E0
G1 F1200 X64.539 Y49.051 E0.01241
G1 X65.081 Y48.455 E0.0392
G1 X65.648 Y47.941 E0.06466
G1 X65.938 Y47.703 E0.07714
G1 X66.577 Y47.23 E0.10358
G1 X67.247 Y46.83 E0.12953
G1 X67.588 Y46.649 E0.14237
G1 X68.303 Y46.315 E0.16862
G1 X69.015 Y46.065 E0.19372
G1 X69.387 Y45.954 E0.20663
G1 X70.154 Y45.766 E0.2329
G1 X70.806 Y45.67 E0.25482
G1 X71.179 Y45.631 E0.26729
G1 X71.99 Y45.589 E0.2943
G1 X137.584 Y45.589 E2.47596
G1 X147.27 Y45.589 E2.79812
G1 X148.08 Y45.552 E2.82509
G1 X148.868 Y45.597 E2.85134
G1 X149.655 Y45.722 E2.87785
G1 X150.008 Y45.782 E2.88976
G1 X150.775 Y45.97 E2.91602
G1 X151.589 Y46.265 E2.94482
G1 X151.824 Y46.365 E2.95331
G1 X152.471 Y46.676 E2.97719
G1 X152.996 Y46.959 E2.99703
G1 X153.671 Y47.368 E3.02328
G1 X154.302 Y47.844 E3.04957
G1 X154.881 Y48.381 E3.07583
G1 X155.32 Y48.871 E3.09771
G1 X155.815 Y49.473 E3.12363
G1 X156.285 Y50.108 E3.14991
G1 X156.688 Y50.786 E3.17614
G1 X157.021 Y51.503 E3.20244
G1 X157.258 Y52.177 E3.2262
G1 X157.427 Y52.738 E3.24569
G1 X157.617 Y53.505 E3.27197
G1 X157.718 Y54.187 E3.2949
G1 X157.759 Y54.584 E3.30817
G1 X157.8 Y55.385 E3.33485
G1 X157.8 Y62.222 E3.56225
G1 X157.76 Y63.011 E3.58853
G1 X157.641 Y63.791 E3.61477
G1 X157.443 Y64.556 E3.64105
G1 X157.169 Y65.296 E3.6673
G1 X156.925 Y65.793 E3.68571
G1 X156.925 Y70.969 E3.85787
G1 X157.243 Y71.661 E3.8832
G1 X157.498 Y72.408 E3.90945
G1 X157.677 Y73.177 E3.93571
G1 X157.777 Y73.961 E3.962
G1 X157.8 Y74.556 E3.9818
G1 X157.8 Y81.411 E4.2098
G1 X157.765 Y82.145 E4.23424
G1 X157.729 Y82.526 E4.24697
G1 X157.615 Y83.307 E4.27322
G1 X157.43 Y84.051 E4.29872
G1 X157.263 Y84.603 E4.3179
G1 X156.996 Y85.346 E4.34416
G1 X156.656 Y86.059 E4.37043
G1 X156.245 Y86.733 E4.39669
G1 X155.802 Y87.322 E4.4212
G1 X155.298 Y87.93 E4.44747
G1 X154.764 Y88.512 E4.47374
G1 X154.174 Y89.036 E4.49999
G1 X153.534 Y89.499 E4.52626
G1 X153.043 Y89.791 E4.54526
G1 X152.525 Y90.075 E4.56491
G1 X151.761 Y90.442 E4.5931
G1 X151.498 Y90.551 E4.60257
G1 X150.754 Y90.816 E4.62884
G1 X149.988 Y91.004 E4.65507
G1 X149.581 Y91.062 E4.66874
G1 X149.253 Y91.114 E4.67979
G1 X148.468 Y91.198 E4.70605
G1 X147.605 Y91.198 E4.73475
G1 X147.441 Y91.189 E4.74021
G1 X137.911 Y91.189 E5.05718
G1 X71.991 Y91.188 E7.24969
G1 X71.221 Y91.15 E7.27533
G1 X70.848 Y91.113 E7.2878
G1 X70.067 Y90.995 E7.31407
G1 X69.399 Y90.829 E7.33696
G1 X69.025 Y90.718 E7.34994
G1 X68.058 Y90.36 E7.38423
G1 X67.528 Y90.1 E7.40387
G1 X67.203 Y89.925 E7.41615
G1 X66.466 Y89.474 E7.44488
G1 X65.937 Y89.075 E7.46692
G1 X65.647 Y88.837 E7.4794
G1 X65.065 Y88.308 E7.50556
G1 X64.538 Y87.727 E7.53165
G1 X64.302 Y87.438 E7.54406
G1 X63.842 Y86.813 E7.56987
G1 X63.465 Y86.185 E7.59423
G1 X63.291 Y85.862 E7.60643
G1 X63.036 Y85.344 E7.62564
G1 X62.668 Y84.349 E7.66092
G1 X62.558 Y83.976 E7.67386
G1 X62.373 Y83.209 E7.7001
G1 X62.275 Y82.516 E7.72338
G1 X62.236 Y82.11 E7.73694
G1 X62.2 Y81.363 E7.76182
G1 X62.202 Y55.384 E8.62588
G1 X62.241 Y54.605 E8.65182
G1 X62.279 Y54.227 E8.66446
G1 X62.398 Y53.446 E8.69074
G1 X62.56 Y52.795 E8.71305
G1 X62.67 Y52.423 E8.72595
G1 X63.037 Y51.434 E8.76104
G1 X63.292 Y50.916 E8.78024
G1 X63.466 Y50.593 E8.79244
G1 X63.855 Y49.947 E8.81752
G1 X64.303 Y49.34 E8.84262
G0 F6000 X64.613 Y49.593
G1 F1200 X64.849 Y49.304 E8.85503
G1 X65.363 Y48.737 E8.88048
G1 X65.901 Y48.25 E8.90462
G1 X66.191 Y48.012 E8.91709
G1 X66.799 Y47.563 E8.94223
G1 X67.435 Y47.184 E8.96686
G1 X67.776 Y47.003 E8.9797
G1 X68.473 Y46.678 E9.00528
G1 X69.129 Y46.448 E9.0284
G1 X69.501 Y46.337 E9.04131
G1 X70.249 Y46.156 E9.0669
G1 X70.847 Y46.068 E9.08701
G1 X71.22 Y46.029 E9.09948
G1 X71.99 Y45.989 E9.12513
G1 X137.584 Y45.989 E11.30679
G1 X147.298 Y45.989 E11.62988
G1 X147.329 Y45.986 E11.63092
G1 X148.097 Y45.952 E11.65649
G1 X148.865 Y45.999 E11.68208
G1 X149.571 Y46.114 E11.70587
G1 X149.952 Y46.179 E11.71872
G1 X150.698 Y46.365 E11.7443
G1 X151.433 Y46.633 E11.77032
G1 X151.668 Y46.733 E11.77881
G1 X152.281 Y47.028 E11.80144
G1 X152.806 Y47.311 E11.82127
G1 X153.463 Y47.711 E11.84686
G1 X154.076 Y48.176 E11.87245
G1 X154.636 Y48.703 E11.89802
G1 X155.011 Y49.125 E11.9168
G1 X155.506 Y49.727 E11.94272
G1 X155.963 Y50.346 E11.96831
G1 X156.353 Y51.009 E11.9939
G1 X156.672 Y51.708 E12.01945
G1 X156.875 Y52.293 E12.04005
G1 X157.044 Y52.854 E12.05954
G1 X157.228 Y53.601 E12.08512
G1 X157.32 Y54.228 E12.1062
G1 X157.361 Y54.625 E12.11948
G1 X157.4 Y55.385 E12.14479
G1 X157.4 Y62.222 E12.37219
G1 X157.36 Y62.99 E12.39776
G1 X157.241 Y63.75 E12.42335
G1 X157.043 Y64.493 E12.44893
G1 X156.769 Y65.212 E12.47452
G1 X156.525 Y65.694 E12.49249
G1 X156.525 Y71.077 E12.67152
G1 X156.586 Y71.182 E12.67556
G1 X156.901 Y71.884 E12.70115
G1 X157.141 Y72.615 E12.72674
G1 X157.304 Y73.366 E12.7523
G1 X157.388 Y74.131 E12.7779
G1 X157.4 Y74.556 E12.79204
G1 X157.4 Y81.411 E13.02004
G1 X157.367 Y82.107 E13.04322
G1 X157.331 Y82.488 E13.05594
G1 X157.219 Y83.249 E13.08153
G1 X157.047 Y83.935 E13.10505
G1 X156.88 Y84.487 E13.12423
G1 X156.619 Y85.21 E13.1498
G1 X156.285 Y85.903 E13.17539
G1 X155.88 Y86.557 E13.20097
G1 X155.494 Y87.067 E13.22224
G1 X154.99 Y87.675 E13.24851
G1 X154.469 Y88.24 E13.27407
G1 X153.892 Y88.749 E13.29966
G1 X153.266 Y89.195 E13.32523
G1 X152.851 Y89.441 E13.34127
G1 X152.333 Y89.725 E13.36092
G1 X151.608 Y90.072 E13.38766
G1 X151.345 Y90.181 E13.39712
G1 X150.62 Y90.438 E13.42271
G1 X149.873 Y90.619 E13.44827
G1 X149.519 Y90.667 E13.46015
G1 X149.191 Y90.719 E13.4712
G1 X148.426 Y90.8 E13.49679
G1 X147.627 Y90.799 E13.52336
G1 X147.445 Y90.789 E13.52942
G1 X137.911 Y90.789 E13.84653
G1 X71.991 Y90.788 E16.03903
G1 X71.261 Y90.752 E16.06334
G1 X70.888 Y90.715 E16.07581
G1 X70.127 Y90.599 E16.10141
G1 X69.513 Y90.445 E16.12247
G1 X69.139 Y90.334 E16.13544
G1 X68.221 Y89.994 E16.168
G1 X67.718 Y89.747 E16.18664
G1 X67.393 Y89.572 E16.19892
G1 X66.693 Y89.144 E16.22621
G1 X66.19 Y88.766 E16.24713
G1 X65.9 Y88.528 E16.25961
G1 X65.347 Y88.026 E16.28445
G1 X64.848 Y87.474 E16.3092
G1 X64.612 Y87.185 E16.32161
G1 X64.175 Y86.591 E16.34614
G1 X63.817 Y85.996 E16.36924
G1 X63.643 Y85.673 E16.38144
G1 X63.401 Y85.18 E16.3997
G1 X63.051 Y84.236 E16.43319
G1 X62.941 Y83.863 E16.44612
G1 X62.762 Y83.115 E16.47171
G1 X62.673 Y82.478 E16.4931
G1 X62.634 Y82.072 E16.50666
G1 X62.6 Y81.363 E16.53027
G1 X62.602 Y55.384 E17.39434
G1 X62.639 Y54.645 E17.41895
G1 X62.677 Y54.267 E17.43158
G1 X62.794 Y53.507 E17.45716
G1 X62.944 Y52.909 E17.47766
G1 X63.054 Y52.537 E17.49057
G1 X63.402 Y51.598 E17.52387
G1 X63.644 Y51.105 E17.54214
G1 X63.818 Y50.782 E17.55434
G1 X64.188 Y50.169 E17.57816
G1 X64.613 Y49.593 E17.60197
G0 F6000 X64.923 Y49.846
G1 F1200 X65.159 Y49.557 E17.61438
G1 X65.646 Y49.02 E17.63849
G1 X66.155 Y48.559 E17.66133
G1 X66.445 Y48.321 E17.67381
G1 X67.021 Y47.896 E17.69761
G1 X67.622 Y47.537 E17.7209
G1 X67.963 Y47.356 E17.73374
G1 X68.642 Y47.041 E17.75863
G1 X69.243 Y46.831 E17.77981
G1 X69.615 Y46.72 E17.79272
G1 X70.343 Y46.545 E17.81762
G1 X70.889 Y46.466 E17.83597
G1 X71.262 Y46.427 E17.84845
G1 X71.99 Y46.389 E17.87269
G1 X137.584 Y46.389 E20.05436
G1 X147.315 Y46.389 E20.37801
G1 X147.367 Y46.384 E20.37975
G1 X148.114 Y46.352 E20.40462
G1 X148.861 Y46.401 E20.42952
G1 X149.488 Y46.505 E20.45066
G1 X149.895 Y46.575 E20.46439
G1 X150.62 Y46.76 E20.48928
G1 X151.276 Y47.001 E20.51252
G1 X151.511 Y47.101 E20.52102
G1 X152.091 Y47.38 E20.54242
G1 X152.616 Y47.663 E20.56226
G1 X153.255 Y48.053 E20.58716
G1 X153.848 Y48.508 E20.61202
G1 X154.39 Y49.025 E20.63693
G1 X154.702 Y49.379 E20.65263
G1 X155.197 Y49.981 E20.67855
G1 X155.64 Y50.584 E20.70344
G1 X156.017 Y51.23 E20.72831
G1 X156.323 Y51.913 E20.75321
G1 X156.492 Y52.408 E20.7706
G1 X156.661 Y52.969 E20.79009
G1 X156.839 Y53.696 E20.81498
G1 X156.922 Y54.269 E20.83424
G1 X156.963 Y54.666 E20.84752
G1 X157 Y55.385 E20.87146
G1 X157 Y62.222 E21.09886
G1 X156.96 Y62.969 E21.12374
G1 X156.841 Y63.707 E21.1486
G1 X156.643 Y64.429 E21.1735
G1 X156.37 Y65.125 E21.19837
G1 X156.125 Y65.593 E21.21594
G1 X156.125 Y71.186 E21.40196
G1 X156.258 Y71.419 E21.41089
G1 X156.557 Y72.105 E21.43578
G1 X156.781 Y72.819 E21.46067
G1 X156.928 Y73.552 E21.48553
G1 X157 Y74.556 E21.51901
G1 X157 Y81.411 E21.74701
G1 X156.969 Y82.069 E21.76892
G1 X156.933 Y82.45 E21.78165
G1 X156.823 Y83.19 E21.80653
G1 X156.664 Y83.819 E21.82811
G1 X156.497 Y84.371 E21.84729
G1 X156.243 Y85.074 E21.87215
G1 X155.914 Y85.747 E21.89707
G1 X155.516 Y86.38 E21.92194
G1 X155.186 Y86.811 E21.93999
G1 X154.682 Y87.419 E21.96626
G1 X154.175 Y87.969 E21.99114
G1 X153.611 Y88.461 E22.01603
G1 X152.999 Y88.891 E22.04091
G1 X152.658 Y89.09 E22.05404
G1 X152.14 Y89.374 E22.07369
G1 X151.455 Y89.703 E22.09896
G1 X151.192 Y89.812 E22.10843
G1 X150.487 Y90.061 E22.1333
G1 X149.759 Y90.233 E22.15818
G1 X149.393 Y90.282 E22.17046
G1 X149.128 Y90.324 E22.17938
G1 X148.384 Y90.401 E22.20426
G1 X147.649 Y90.4 E22.22871
G1 X147.448 Y90.389 E22.2354
G1 X137.911 Y90.389 E22.55261
G1 X71.991 Y90.388 E24.74511
G1 X71.3 Y90.354 E24.76812
G1 X70.927 Y90.317 E24.78059
G1 X70.188 Y90.203 E24.80546
G1 X69.626 Y90.062 E24.82473
G1 X69.252 Y89.951 E24.83771
G1 X68.383 Y89.629 E24.86853
G1 X67.907 Y89.395 E24.88617
G1 X67.582 Y89.22 E24.89845
G1 X66.919 Y88.814 E24.92431
G1 X66.444 Y88.457 E24.94407
G1 X66.154 Y88.219 E24.95655
G1 X65.63 Y87.743 E24.98009
G1 X65.158 Y87.221 E25.0035
G1 X64.922 Y86.932 E25.01591
G1 X64.508 Y86.369 E25.03915
G1 X64.169 Y85.806 E25.06101
G1 X63.995 Y85.483 E25.07321
G1 X63.766 Y85.016 E25.09051
G1 X63.435 Y84.123 E25.12219
G1 X63.325 Y83.75 E25.13512
G1 X63.152 Y83.022 E25.16001
G1 X63.071 Y82.439 E25.17959
G1 X63.032 Y82.033 E25.19315
G1 X63 Y81.363 E25.21546
G1 X63.002 Y55.384 E26.07953
G1 X63.037 Y54.685 E26.10281
G1 X63.075 Y54.307 E26.11544
G1 X63.19 Y53.568 E26.14032
G1 X63.327 Y53.022 E26.15904
G1 X63.437 Y52.65 E26.17194
G1 X63.767 Y51.762 E26.20345
G1 X63.996 Y51.295 E26.22075
G1 X64.17 Y50.972 E26.23295
G1 X64.521 Y50.391 E26.25553
G1 X64.923 Y49.846 E26.27806
G0 F6000 X65.233 Y50.099
G1 F1200 X65.469 Y49.81 E26.29047
G1 X65.929 Y49.303 E26.31323
G1 X66.409 Y48.868 E26.33478
G1 X66.699 Y48.63 E26.34726
G1 X67.243 Y48.228 E26.36976
G1 X67.81 Y47.89 E26.39171
G1 X68.151 Y47.709 E26.40455
G1 X68.81 Y47.405 E26.42869
G1 X69.358 Y47.215 E26.44798
G1 X69.73 Y47.104 E26.46089
G1 X70.436 Y46.934 E26.48505
G1 X70.931 Y46.864 E26.50167
G1 X71.304 Y46.825 E26.51415
G1 X71.99 Y46.789 E26.53699
G1 X137.584 Y46.789 E28.71866
G1 X147.332 Y46.789 E29.04288
G1 X147.405 Y46.782 E29.04532
G1 X148.131 Y46.753 E29.06948
G1 X148.855 Y46.803 E29.09362
G1 X149.405 Y46.896 E29.11217
G1 X149.838 Y46.972 E29.1268
G1 X150.541 Y47.154 E29.15095
G1 X151.119 Y47.369 E29.17146
G1 X151.354 Y47.469 E29.17996
G1 X151.902 Y47.732 E29.20017
G1 X152.427 Y48.015 E29.22001
G1 X153.046 Y48.395 E29.24417
G1 X153.62 Y48.84 E29.26832
G1 X154.142 Y49.345 E29.29248
G1 X154.393 Y49.633 E29.30519
G1 X154.888 Y50.235 E29.33111
G1 X155.318 Y50.821 E29.35528
G1 X155.68 Y51.45 E29.37942
G1 X155.972 Y52.115 E29.40358
G1 X156.109 Y52.523 E29.41789
G1 X156.278 Y53.084 E29.43738
G1 X156.449 Y53.79 E29.46154
G1 X156.524 Y54.31 E29.47901
G1 X156.565 Y54.707 E29.49229
G1 X156.6 Y55.385 E29.51487
G1 X156.6 Y62.222 E29.74227
G1 X156.56 Y62.947 E29.76642
G1 X156.441 Y63.664 E29.79059
G1 X156.243 Y64.363 E29.81476
G1 X155.97 Y65.036 E29.83891
G1 X155.725 Y65.49 E29.85607
G1 X155.725 Y71.291 E30.04901
G1 X155.928 Y71.655 E30.06287
G1 X156.211 Y72.324 E30.08703
G1 X156.419 Y73.02 E30.1112
G1 X156.549 Y73.735 E30.13537
G1 X156.6 Y74.556 E30.16273
G1 X156.6 Y81.411 E30.39072
G1 X156.571 Y82.032 E30.4114
G1 X156.535 Y82.413 E30.42413
G1 X156.427 Y83.131 E30.44828
G1 X156.281 Y83.703 E30.46791
G1 X156.114 Y84.255 E30.4871
G1 X155.866 Y84.938 E30.51126
G1 X155.544 Y85.589 E30.53542
G1 X155.153 Y86.201 E30.55957
G1 X154.878 Y86.556 E30.57451
G1 X154.374 Y87.164 E30.60078
G1 X153.881 Y87.697 E30.62492
G1 X153.331 Y88.172 E30.6491
G1 X152.466 Y88.739 E30.6835
G1 X151.948 Y89.023 E30.70314
G1 X151.302 Y89.333 E30.72698
G1 X151.039 Y89.442 E30.73644
G1 X150.354 Y89.683 E30.7606
G1 X149.646 Y89.847 E30.78477
G1 X149.299 Y89.892 E30.79641
G1 X149.065 Y89.929 E30.80429
G1 X148.343 Y90.003 E30.82843
G1 X147.671 Y90 E30.85078
G1 X147.47 Y89.989 E30.85747
G1 X137.911 Y89.989 E31.17541
G1 X71.991 Y89.988 E33.36791
G1 X71.34 Y89.956 E33.38959
G1 X70.967 Y89.919 E33.40206
G1 X70.249 Y89.807 E33.42623
G1 X69.74 Y89.678 E33.44369
G1 X69.366 Y89.567 E33.45667
G1 X68.545 Y89.263 E33.48579
G1 X68.097 Y89.043 E33.50239
G1 X67.772 Y88.868 E33.51466
G1 X67.146 Y88.485 E33.53907
G1 X66.698 Y88.148 E33.55772
G1 X66.408 Y87.91 E33.5702
G1 X65.913 Y87.46 E33.59245
G1 X65.468 Y86.968 E33.61451
G1 X65.232 Y86.679 E33.62692
G1 X64.84 Y86.147 E33.6489
G1 X64.521 Y85.616 E33.6695
G1 X64.347 Y85.293 E33.68171
G1 X64.13 Y84.851 E33.69808
G1 X63.819 Y84.01 E33.72791
G1 X63.709 Y83.637 E33.74084
G1 X63.542 Y82.93 E33.765
G1 X63.469 Y82.401 E33.78276
G1 X63.43 Y81.995 E33.79633
G1 X63.4 Y81.363 E33.81737
G1 X63.402 Y55.384 E34.68144
G1 X63.435 Y54.725 E34.70338
G1 X63.473 Y54.347 E34.71602
G1 X63.585 Y53.629 E34.74019
G1 X63.711 Y53.135 E34.75715
G1 X63.821 Y52.763 E34.77005
G1 X64.131 Y51.927 E34.7997
G1 X64.348 Y51.485 E34.81608
G1 X64.522 Y51.162 E34.82828
G1 X64.853 Y50.613 E34.84961
G1 X65.233 Y50.099 E34.87087
G0 F6000 X65.543 Y50.352
G1 F1200 X65.779 Y50.063 E34.88328
G1 X66.212 Y49.586 E34.9047
G1 X66.663 Y49.177 E34.92495
G1 X66.953 Y48.939 E34.93743
G1 X67.465 Y48.561 E34.9586
G1 X67.997 Y48.244 E34.9792
G1 X68.338 Y48.063 E34.99204
G1 X68.978 Y47.768 E35.01547
G1 X69.472 Y47.598 E35.03285
G1 X69.844 Y47.487 E35.04576
G1 X70.529 Y47.324 E35.06918
G1 X70.972 Y47.262 E35.08406
G1 X71.345 Y47.223 E35.09653
G1 X71.99 Y47.189 E35.11802
G1 X137.584 Y47.189 E37.29968
G1 X147.349 Y47.189 E37.62447
G1 X147.443 Y47.18 E37.62761
G1 X148.146 Y47.153 E37.65101
G1 X148.848 Y47.206 E37.67442
G1 X149.322 Y47.287 E37.69042
G1 X149.531 Y47.331 E37.69752
G1 X149.781 Y47.368 E37.70592
G1 X150.461 Y47.549 E37.72933
G1 X150.963 Y47.737 E37.74716
G1 X151.198 Y47.837 E37.75565
G1 X151.712 Y48.084 E37.77462
G1 X152.237 Y48.367 E37.79446
G1 X152.837 Y48.736 E37.81788
G1 X153.391 Y49.17 E37.84129
G1 X154.084 Y49.887 E37.87446
G1 X154.579 Y50.489 E37.90038
G1 X154.994 Y51.058 E37.9238
G1 X155.343 Y51.669 E37.94721
G1 X155.726 Y52.639 E37.98189
G1 X155.895 Y53.2 E38.00138
G1 X156.06 Y53.884 E38.02478
G1 X156.126 Y54.351 E38.04047
G1 X156.167 Y54.748 E38.05374
G1 X156.2 Y55.385 E38.07496
G1 X156.2 Y62.222 E38.30236
G1 X156.16 Y62.925 E38.32578
G1 X156.041 Y63.619 E38.3492
G1 X155.843 Y64.294 E38.37259
G1 X155.571 Y64.943 E38.396
G1 X155.325 Y65.381 E38.41271
G1 X155.325 Y71.393 E38.61267
G1 X155.597 Y71.89 E38.63151
G1 X155.864 Y72.541 E38.65491
G1 X156.054 Y73.219 E38.67833
G1 X156.167 Y73.914 E38.70175
G1 X156.2 Y74.556 E38.72313
G1 X156.2 Y81.411 E38.95113
G1 X156.173 Y81.994 E38.97054
G1 X156.137 Y82.375 E38.98327
G1 X156.031 Y83.071 E39.00669
G1 X155.898 Y83.587 E39.02441
G1 X155.731 Y84.139 E39.04359
G1 X155.49 Y84.801 E39.06702
G1 X155.174 Y85.43 E39.09044
G1 X154.79 Y86.02 E39.11385
G1 X154.57 Y86.301 E39.12572
G1 X154.066 Y86.909 E39.15199
G1 X153.587 Y87.424 E39.17538
G1 X153.052 Y87.882 E39.1988
G1 X152.274 Y88.389 E39.22969
G1 X151.756 Y88.673 E39.24934
G1 X151.149 Y88.964 E39.27173
G1 X150.886 Y89.073 E39.2812
G1 X150.221 Y89.305 E39.30462
