;FLAVOR:Marlin
;TIME:5296
;Filament used: 3.08793m
;Layer height: 0.16
;MINX:84
;MINY:59
;MINZ:0.2
;MAXX:136
;MAXY:161
;MAXZ:8.96
;Generated with Creality Slicer 4.8.2-205
M140 S60
M105
M190 S60
M104 S200
M105
M109 S200
M82 ;absolute extrusion mode

G28 ;Home

G92 E0 ;Reset Extruder
G1 Z2.0 F3000 ;Move Z Axis up
G1 X10.1 Y20 Z0.28 F5000.0 ;Move to start position
G1 X10.1 Y200.0 Z0.28 F1500.0 E15 ;Draw the first line
G1 X10.4 Y200.0 Z0.28 F5000.0 ;Move to side a little
G1 X10.4 Y20 Z0.28 F1500.0 E30 ;Draw the second line
G92 E0 ;Reset Extruder
G1 Z2.0 F3000 ;Move Z Axis up

G92 E0
G92 E0
G1 F2400 E-0.8
;LAYER_COUNT:59
;LAYER:0
M107
G0 F6000 X87.01 Y63.695 Z0.2
;TYPE:SKIRT
G1 F2400 E0
G1 F1200 X87.184 Y63.489 E0.00897
G1 X87.819 Y62.799 E0.04016
G1 X88.553 Y62.13 E0.07319
G1 X88.85 Y61.883 E0.08604
G1 X89.596 Y61.314 E0.11724
G1 X90.555 Y60.717 E0.15481
G1 X90.62 Y60.681 E0.15729
G1 X91.253 Y60.357 E0.18094
G1 X91.558 Y60.213 E0.19216
G1 X92.422 Y59.849 E0.22334
G1 X92.924 Y59.676 E0.241
G1 X93.157 Y59.602 E0.24913
G1 X93.778 Y59.425 E0.27061
G1 X93.9 Y59.394 E0.27479
G1 X94.818 Y59.202 E0.30599
G1 X95.361 Y59.126 E0.32422
G1 X95.685 Y59.089 E0.33507
G1 X96.728 Y59.02 E0.36984
G1 X97.642 Y59.003 E0.40024
G1 X97.847 Y59.001 E0.40706
G1 X122.31 Y59 E1.2207
G1 X123.012 Y59.009 E1.24405
G1 X123.693 Y59.04 E1.26673
G1 X124.252 Y59.083 E1.28537
G1 X125.183 Y59.195 E1.31656
G1 X126.463 Y59.484 E1.36021
G1 X126.674 Y59.545 E1.36751
G1 X127.69 Y59.893 E1.40323
G1 X127.936 Y59.991 E1.41204
G1 X128.792 Y60.375 E1.44324
G1 X129.252 Y60.619 E1.46056
G1 X129.487 Y60.751 E1.46953
G1 X130.284 Y61.245 E1.50071
G1 X130.789 Y61.609 E1.52142
G1 X130.883 Y61.681 E1.52536
G1 X131.268 Y61.99 E1.54178
G1 X131.474 Y62.163 E1.55072
G1 X132.166 Y62.797 E1.58194
G1 X132.81 Y63.496 E1.61355
G1 X132.982 Y63.7 E1.62243
G1 X133.651 Y64.581 E1.65922
G1 X133.796 Y64.793 E1.66776
G1 X134.452 Y65.882 E1.71005
G1 X134.563 Y66.093 E1.71798
G1 X134.964 Y66.941 E1.74917
G1 X135.307 Y67.868 E1.78205
G1 X135.345 Y67.987 E1.7862
G1 X135.464 Y68.385 E1.80002
G1 X135.543 Y68.669 E1.80983
G1 X135.755 Y69.583 E1.84103
G1 X135.869 Y70.327 E1.86607
G1 X135.914 Y70.708 E1.87883
G1 X135.985 Y71.682 E1.91131
G1 X135.995 Y72.03 E1.92289
G1 X136 Y72.346 E1.9334
G1 X135.999 Y147.486 E4.43257
G1 X135.989 Y148.212 E4.45671
G1 X135.94 Y149.111 E4.48666
G1 X135.909 Y149.434 E4.49745
G1 X135.779 Y150.363 E4.52865
G1 X135.558 Y151.327 E4.56155
G1 X135.503 Y151.525 E4.56838
G1 X135.383 Y151.928 E4.58237
G1 X135.322 Y152.119 E4.58904
G1 X134.998 Y152.999 E4.62023
G1 X134.551 Y153.945 E4.65503
G1 X134.389 Y154.249 E4.66648
G1 X133.913 Y155.057 E4.69767
G1 X133.241 Y155.985 E4.73578
G1 X133.036 Y156.239 E4.74664
G1 X132.717 Y156.617 E4.76309
G1 X132.071 Y157.297 E4.79428
G1 X131.608 Y157.72 E4.81514
G1 X131.309 Y157.978 E4.82828
G1 X130.574 Y158.56 E4.85946
G1 X129.429 Y159.285 E4.90454
G1 X129.084 Y159.475 E4.91764
G1 X128.244 Y159.892 E4.94883
G1 X127.065 Y160.337 E4.99074
G1 X126.784 Y160.425 E5.00053
G1 X125.878 Y160.667 E5.03172
G1 X125.14 Y160.805 E5.0567
G1 X124.809 Y160.855 E5.06783
G1 X123.877 Y160.955 E5.09901
G1 X123.382 Y160.976 E5.11549
G1 X122.26 Y160.998 E5.15281
G1 X122.044 Y161 E5.15999
G1 X97.471 Y160.998 E5.9773
G1 X96.772 Y160.988 E6.00055
G1 X96.205 Y160.965 E6.01942
G1 X96.114 Y160.959 E6.02245
G1 X95.489 Y160.9 E6.04333
G1 X95.222 Y160.867 E6.05228
G1 X94.297 Y160.712 E6.08348
G1 X93.73 Y160.577 E6.10286
G1 X93.629 Y160.55 E6.10634
G1 X93.18 Y160.419 E6.1219
G1 X92.979 Y160.356 E6.1289
G1 X92.097 Y160.038 E6.16009
G1 X91.132 Y159.587 E6.19551
G1 X90.759 Y159.39 E6.20954
G1 X89.949 Y158.917 E6.24074
G1 X89.296 Y158.463 E6.26719
G1 X89.204 Y158.394 E6.27102
G1 X88.697 Y157.99 E6.29258
G1 X88.482 Y157.808 E6.30195
G1 X87.793 Y157.172 E6.33314
G1 X87.18 Y156.504 E6.36329
G1 X87.04 Y156.338 E6.37051
G1 X86.836 Y156.089 E6.38122
G1 X86.72 Y155.943 E6.38742
G1 X86.169 Y155.184 E6.41862
G1 X85.682 Y154.379 E6.44991
G1 X85.583 Y154.198 E6.45677
G1 X85.245 Y153.526 E6.48179
G1 X85.138 Y153.294 E6.49029
G1 X84.666 Y152.087 E6.53339
G1 X84.64 Y152.007 E6.53619
G1 X84.498 Y151.535 E6.55259
G1 X84.432 Y151.296 E6.56083
G1 X84.221 Y150.382 E6.59203
G1 X84.089 Y149.454 E6.62321
G1 X84.064 Y149.202 E6.63163
G1 X84.015 Y148.461 E6.65633
G1 X84.005 Y148.142 E6.66695
G1 X84 Y147.797 E6.67842
G1 X84.001 Y72.432 E9.18507
G1 X84.011 Y71.77 E9.20709
G1 X84.038 Y71.152 E9.22767
G1 X84.046 Y71.04 E9.2314
G1 X84.092 Y70.547 E9.24787
G1 X84.119 Y70.316 E9.25561
G1 X84.268 Y69.39 E9.2868
G1 X84.433 Y68.699 E9.31043
G1 X84.46 Y68.6 E9.31384
G1 X84.592 Y68.15 E9.32944
G1 X84.674 Y67.893 E9.33841
G1 X84.997 Y67.013 E9.36959
G1 X85.411 Y66.131 E9.402
G1 X85.531 Y65.902 E9.4106
G1 X86.036 Y65.036 E9.44394
G1 X86.175 Y64.821 E9.45245
G1 X87.01 Y63.695 E9.49908
G0 F6000 X87.315 Y63.953
G1 F1200 X87.489 Y63.747 E9.50805
G1 X88.113 Y63.07 E9.53867
G1 X88.809 Y62.437 E9.56996
G1 X89.106 Y62.19 E9.58281
G1 X89.839 Y61.633 E9.61343
G1 X90.748 Y61.067 E9.64904
G1 X90.813 Y61.031 E9.65152
G1 X91.423 Y60.719 E9.6743
G1 X91.728 Y60.575 E9.68552
G1 X92.577 Y60.218 E9.71616
G1 X93.045 Y60.057 E9.73262
G1 X93.278 Y59.983 E9.74075
G1 X93.877 Y59.812 E9.76147
G1 X93.999 Y59.781 E9.76565
G1 X94.9 Y59.594 E9.79626
G1 X95.406 Y59.523 E9.81325
G1 X95.73 Y59.486 E9.8241
G1 X96.736 Y59.42 E9.85763
G1 X97.847 Y59.401 E9.89459
G1 X122.31 Y59.4 E10.70823
G1 X123.006 Y59.409 E10.73138
G1 X123.662 Y59.439 E10.75322
G1 X124.221 Y59.482 E10.77187
G1 X125.135 Y59.593 E10.80249
G1 X126.352 Y59.868 E10.84399
G1 X126.563 Y59.929 E10.8513
G1 X127.542 Y60.265 E10.88572
G1 X127.788 Y60.363 E10.89453
G1 X128.628 Y60.74 E10.92515
G1 X129.056 Y60.968 E10.94128
G1 X129.291 Y61.1 E10.95025
G1 X130.074 Y61.585 E10.98088
G1 X130.546 Y61.927 E11.00027
G1 X130.64 Y61.999 E11.00421
G1 X131.011 Y62.297 E11.02003
G1 X131.217 Y62.47 E11.02898
G1 X131.896 Y63.092 E11.05961
G1 X132.504 Y63.754 E11.0895
G1 X132.676 Y63.958 E11.09838
G1 X133.321 Y64.807 E11.13384
G1 X133.466 Y65.019 E11.14238
G1 X134.098 Y66.068 E11.18312
G1 X134.209 Y66.279 E11.19105
G1 X134.602 Y67.112 E11.22168
G1 X134.926 Y67.99 E11.25281
G1 X134.964 Y68.109 E11.25696
G1 X135.078 Y68.492 E11.27025
G1 X135.157 Y68.776 E11.28006
G1 X135.365 Y69.673 E11.31068
G1 X135.472 Y70.374 E11.33427
G1 X135.517 Y70.755 E11.34703
G1 X135.586 Y71.694 E11.37835
G1 X135.596 Y72.042 E11.38993
G1 X135.6 Y72.346 E11.40004
G1 X135.599 Y147.48 E13.899
G1 X135.589 Y148.206 E13.92315
G1 X135.542 Y149.073 E13.95203
G1 X135.511 Y149.396 E13.96282
G1 X135.383 Y150.307 E13.99342
G1 X135.172 Y151.22 E14.02459
G1 X135.117 Y151.418 E14.03142
G1 X135.002 Y151.806 E14.04488
G1 X134.941 Y151.997 E14.05155
G1 X134.623 Y152.861 E14.08217
G1 X134.198 Y153.757 E14.11516
G1 X134.036 Y154.061 E14.12661
G1 X133.568 Y154.854 E14.15724
G1 X132.93 Y155.733 E14.19337
G1 X132.725 Y155.987 E14.20422
G1 X132.415 Y156.354 E14.2202
G1 X131.781 Y157.021 E14.25081
G1 X131.347 Y157.417 E14.27035
G1 X131.048 Y157.675 E14.28348
G1 X130.325 Y158.246 E14.31413
G1 X129.237 Y158.935 E14.35696
G1 X128.892 Y159.125 E14.37006
G1 X128.067 Y159.534 E14.40068
G1 X126.946 Y159.956 E14.44052
G1 X126.665 Y160.044 E14.45032
G1 X125.775 Y160.28 E14.48094
G1 X125.08 Y160.409 E14.50445
G1 X124.749 Y160.459 E14.51559
G1 X123.374 Y160.576 E14.56148
G1 X122.252 Y160.598 E14.59881
G1 X122.044 Y160.6 E14.60573
G1 X97.476 Y160.598 E15.42286
G1 X96.777 Y160.588 E15.44611
G1 X96.232 Y160.566 E15.46426
G1 X96.141 Y160.56 E15.46729
G1 X95.538 Y160.503 E15.48743
G1 X95.271 Y160.47 E15.49638
G1 X94.363 Y160.317 E15.52701
G1 X93.833 Y160.19 E15.54514
G1 X93.732 Y160.163 E15.54861
G1 X93.3 Y160.038 E15.56357
G1 X93.099 Y159.975 E15.57058
G1 X92.233 Y159.662 E15.6012
G1 X91.319 Y159.233 E15.63478
G1 X90.946 Y159.036 E15.64881
G1 X90.151 Y158.571 E15.67945
G1 X89.536 Y158.143 E15.70437
G1 X89.444 Y158.074 E15.70819
G1 X88.955 Y157.684 E15.729
G1 X88.74 Y157.502 E15.73837
G1 X88.064 Y156.878 E15.76896
G1 X87.486 Y156.246 E15.79745
G1 X87.346 Y156.08 E15.80467
G1 X87.15 Y155.84 E15.81498
G1 X87.034 Y155.694 E15.82118
G1 X86.493 Y154.949 E15.8518
G1 X86.033 Y154.187 E15.88141
G1 X85.934 Y154.006 E15.88827
G1 X85.608 Y153.358 E15.9124
G1 X85.501 Y153.126 E15.92089
G1 X85.046 Y151.963 E15.96243
G1 X85.02 Y151.883 E15.96523
G1 X84.883 Y151.429 E15.981
G1 X84.817 Y151.19 E15.98925
G1 X84.611 Y150.292 E16.01989
G1 X84.487 Y149.414 E16.04938
G1 X84.462 Y149.162 E16.05781
G1 X84.415 Y148.448 E16.0816
G1 X84.405 Y148.129 E16.09222
G1 X84.4 Y147.797 E16.10326
G1 X84.401 Y72.438 E18.60971
G1 X84.411 Y71.776 E18.63173
G1 X84.437 Y71.181 E18.65154
G1 X84.445 Y71.069 E18.65528
G1 X84.49 Y70.593 E18.67118
G1 X84.517 Y70.362 E18.67892
G1 X84.663 Y69.453 E18.70954
G1 X84.819 Y68.804 E18.73174
G1 X84.846 Y68.705 E18.73515
G1 X84.974 Y68.272 E18.75017
G1 X85.056 Y68.015 E18.75914
G1 X85.373 Y67.151 E18.78975
G1 X85.765 Y66.317 E18.8204
G1 X85.885 Y66.088 E18.829
G1 X86.372 Y65.253 E18.86115
G1 X86.511 Y65.038 E18.86967
G1 X87.315 Y63.953 E18.91458
G0 F6000 X87.621 Y64.211
G1 F1200 X87.795 Y64.005 E18.92355
G1 X88.407 Y63.342 E18.95356
G1 X89.065 Y62.745 E18.98311
G1 X89.362 Y62.498 E18.99596
G1 X90.081 Y61.951 E19.02601
G1 X90.942 Y61.417 E19.0597
G1 X91.007 Y61.381 E19.06217
G1 X91.594 Y61.08 E19.08412
G1 X91.899 Y60.936 E19.09533
G1 X92.732 Y60.587 E19.12537
G1 X93.166 Y60.439 E19.14062
G1 X93.399 Y60.365 E19.14876
G1 X93.975 Y60.2 E19.16868
G1 X94.097 Y60.169 E19.17287
G1 X94.981 Y59.986 E19.2029
G1 X95.452 Y59.921 E19.21871
G1 X95.776 Y59.884 E19.22956
G1 X96.743 Y59.82 E19.26179
G1 X97.847 Y59.801 E19.29851
G1 X122.31 Y59.8 E20.11216
G1 X123 Y59.809 E20.13511
G1 X123.631 Y59.838 E20.15612
G1 X124.19 Y59.881 E20.17476
G1 X125.087 Y59.99 E20.20482
G1 X126.241 Y60.252 E20.24418
G1 X126.452 Y60.313 E20.25148
G1 X127.394 Y60.636 E20.2846
G1 X127.64 Y60.734 E20.29341
G1 X128.86 Y61.317 E20.33838
G1 X129.095 Y61.449 E20.34735
G1 X129.862 Y61.926 E20.37739
G1 X130.302 Y62.244 E20.39545
G1 X130.396 Y62.316 E20.39938
G1 X130.754 Y62.603 E20.41465
G1 X130.96 Y62.776 E20.42359
G1 X131.625 Y63.387 E20.45363
G1 X132.198 Y64.012 E20.48183
G1 X132.37 Y64.216 E20.49071
G1 X132.991 Y65.033 E20.52484
G1 X133.136 Y65.245 E20.53338
G1 X133.744 Y66.254 E20.57256
G1 X133.855 Y66.465 E20.58049
G1 X134.24 Y67.282 E20.61053
G1 X134.545 Y68.111 E20.63991
G1 X134.583 Y68.23 E20.64407
G1 X134.693 Y68.599 E20.65687
G1 X134.772 Y68.883 E20.66668
G1 X134.975 Y69.763 E20.69671
G1 X135.075 Y70.421 E20.71885
G1 X135.12 Y70.802 E20.73161
G1 X135.186 Y71.705 E20.76173
G1 X135.196 Y72.053 E20.7733
G1 X135.2 Y72.346 E20.78305
G1 X135.199 Y147.474 E23.28182
G1 X135.189 Y148.2 E23.30597
G1 X135.143 Y149.034 E23.33375
G1 X135.112 Y149.357 E23.34454
G1 X134.986 Y150.252 E23.3746
G1 X134.787 Y151.113 E23.40399
G1 X134.732 Y151.311 E23.41083
G1 X134.62 Y151.684 E23.42378
G1 X134.559 Y151.875 E23.43045
G1 X134.247 Y152.722 E23.46047
G1 X133.845 Y153.569 E23.49166
G1 X133.683 Y153.873 E23.50311
G1 X133.223 Y154.65 E23.53315
G1 X132.618 Y155.482 E23.56736
G1 X132.413 Y155.736 E23.57822
G1 X132.114 Y156.091 E23.59365
G1 X131.491 Y156.745 E23.6237
G1 X131.086 Y157.114 E23.64192
G1 X130.787 Y157.372 E23.65505
G1 X130.077 Y157.932 E23.68513
G1 X129.044 Y158.585 E23.72578
G1 X128.699 Y158.775 E23.73888
G1 X127.889 Y159.175 E23.76892
G1 X126.826 Y159.574 E23.80669
G1 X126.545 Y159.662 E23.81648
G1 X125.672 Y159.893 E23.84652
G1 X125.021 Y160.014 E23.86854
G1 X124.69 Y160.064 E23.87967
G1 X123.366 Y160.176 E23.92387
G1 X122.244 Y160.198 E23.96119
G1 X122.044 Y160.2 E23.96785
G1 X97.482 Y160.198 E24.78478
G1 X96.783 Y160.188 E24.80803
G1 X96.258 Y160.167 E24.82551
G1 X96.167 Y160.161 E24.82854
G1 X95.587 Y160.106 E24.84792
G1 X95.32 Y160.073 E24.85687
G1 X94.429 Y159.923 E24.88692
G1 X93.937 Y159.804 E24.90375
G1 X93.836 Y159.777 E24.90723
G1 X93.419 Y159.656 E24.92167
G1 X93.218 Y159.593 E24.92868
G1 X92.369 Y159.285 E24.95872
G1 X91.505 Y158.879 E24.99047
G1 X91.132 Y158.682 E25.0045
G1 X90.353 Y158.226 E25.03452
G1 X89.776 Y157.823 E25.05793
G1 X89.684 Y157.754 E25.06175
G1 X89.214 Y157.379 E25.08175
G1 X88.999 Y157.197 E25.09112
G1 X88.336 Y156.584 E25.12115
G1 X87.792 Y155.988 E25.14799
G1 X87.652 Y155.822 E25.15522
G1 X87.463 Y155.591 E25.16514
G1 X87.347 Y155.445 E25.17134
G1 X86.817 Y154.714 E25.20138
G1 X86.384 Y153.995 E25.22929
G1 X86.285 Y153.814 E25.23615
G1 X85.972 Y153.191 E25.25934
G1 X85.865 Y152.959 E25.26784
G1 X85.426 Y151.84 E25.30782
G1 X85.4 Y151.76 E25.31062
G1 X85.269 Y151.322 E25.32582
G1 X85.203 Y151.083 E25.33407
G1 X85.001 Y150.203 E25.3641
G1 X84.885 Y149.375 E25.39191
G1 X84.86 Y149.123 E25.40033
G1 X84.815 Y148.436 E25.42323
G1 X84.805 Y148.117 E25.43384
G1 X84.8 Y147.797 E25.44449
G1 X84.801 Y72.444 E27.95074
G1 X84.811 Y71.782 E27.97276
G1 X84.836 Y71.209 E27.99184
G1 X84.844 Y71.097 E27.99557
G1 X84.887 Y70.64 E28.01084
G1 X84.914 Y70.409 E28.01857
G1 X85.058 Y69.517 E28.04863
G1 X85.204 Y68.909 E28.06942
G1 X85.231 Y68.81 E28.07284
G1 X85.355 Y68.394 E28.08727
G1 X85.437 Y68.137 E28.09625
G1 X85.749 Y67.289 E28.1263
G1 X86.119 Y66.503 E28.15519
G1 X86.239 Y66.274 E28.16379
G1 X86.708 Y65.47 E28.19475
G1 X86.847 Y65.255 E28.20327
G1 X87.621 Y64.211 E28.24649
G1 F2400 E27.44649
G0 F6000 X98.342 Y85.265
G0 X99.154 Y85.601
G0 X100.253 Y84.512
G0 X99.953 Y84.212
G1 F2400 E28.24649
G1 F1200 X99.656 Y84.676 E28.26482
G1 X99.43 Y85.179 E28.28316
G1 X99.279 Y85.709 E28.30149
G1 X99.2 Y86.482 E28.32733
G1 X99.2 Y110.917 E29.14004
G1 X99.24 Y111.467 E29.15838
G1 X99.359 Y112.005 E29.17671
G1 X99.555 Y112.52 E29.19504
G1 X99.823 Y113.001 E29.21335
G1 X100.313 Y113.604 E29.23919
G1 X100.359 Y113.65 E29.24136
G1 X100.313 Y113.695 E29.2435
G1 X99.953 Y114.112 E29.26182
G1 X99.656 Y114.576 E29.28014
G1 X99.43 Y115.079 E29.29848
G1 X99.279 Y115.609 E29.31681
G1 X99.2 Y116.382 E29.34266
G1 X99.2 Y120.817 E29.49017
G1 X99.24 Y121.367 E29.50851
G1 X99.359 Y121.905 E29.52683
G1 X99.555 Y122.42 E29.54516
G1 X99.823 Y122.901 E29.56348
G1 X100.313 Y123.504 E29.58932
G1 X100.595 Y123.786 E29.60258
G1 X101.012 Y124.146 E29.62091
G1 X101.476 Y124.443 E29.63923
G1 X101.979 Y124.669 E29.65757
G1 X102.509 Y124.82 E29.6759
G1 X103.282 Y124.899 E29.70174
G1 X116.499 Y124.9 E30.14134
G1 X117.048 Y124.86 E30.15965
G1 X117.586 Y124.741 E30.17798
G1 X117.954 Y124.61 E30.19097
G1 X118.323 Y124.457 E30.20426
G1 X118.816 Y124.21 E30.2226
G1 X119.267 Y123.894 E30.24091
G1 X119.555 Y123.634 E30.25382
G1 X119.684 Y123.505 E30.25988
G1 X120.044 Y123.088 E30.27821
G1 X120.341 Y122.624 E30.29653
G1 X120.567 Y122.121 E30.31487
G1 X120.718 Y121.591 E30.3332
G1 X120.797 Y120.823 E30.35888
G1 X120.802 Y116.603 E30.49924
G1 X120.763 Y116.053 E30.51758
G1 X120.644 Y115.515 E30.5359
G1 X120.512 Y115.143 E30.54903
G1 X120.359 Y114.774 E30.56232
G1 X120.112 Y114.281 E30.58066
G1 X119.796 Y113.83 E30.59897
G1 X119.637 Y113.654 E30.60686
G1 X119.686 Y113.605 E30.60917
G1 X120.046 Y113.188 E30.62749
G1 X120.343 Y112.724 E30.64581
G1 X120.569 Y112.221 E30.66415
G1 X120.72 Y111.691 E30.68248
G1 X120.799 Y110.918 E30.70833
G1 X120.8 Y86.698 E31.51389
G1 X120.76 Y86.149 E31.5322
G1 X120.641 Y85.611 E31.55052
G1 X120.51 Y85.243 E31.56352
G1 X120.357 Y84.874 E31.5768
G1 X120.11 Y84.381 E31.59514
G1 X119.794 Y83.93 E31.61346
G1 X119.534 Y83.642 E31.62636
G1 X119.405 Y83.513 E31.63243
G1 X118.988 Y83.153 E31.65075
G1 X118.524 Y82.856 E31.66908
G1 X118.021 Y82.63 E31.68742
G1 X117.491 Y82.479 E31.70575
G1 X116.718 Y82.4 E31.73159
G1 X103.282 Y82.4 E32.17847
G1 X102.732 Y82.44 E32.19682
G1 X102.194 Y82.559 E32.21514
G1 X101.679 Y82.755 E32.23347
G1 X101.198 Y83.023 E32.25178
G1 X100.595 Y83.513 E32.27763
G1 X100.313 Y83.795 E32.29089
G1 X99.953 Y84.212 E32.30921
G0 F6000 X100.257 Y84.474
G1 F1200 X99.982 Y84.916 E32.32653
G1 X99.778 Y85.396 E32.34387
G1 X99.65 Y85.901 E32.3612
G1 X99.6 Y86.482 E32.3806
G1 X99.6 Y110.917 E33.19331
G1 X99.64 Y111.437 E33.21066
G1 X99.759 Y111.944 E33.22798
G1 X99.954 Y112.427 E33.2453
G1 X100.22 Y112.875 E33.26263
G1 X100.596 Y113.321 E33.28203
G1 X100.878 Y113.603 E33.2953
G1 X100.933 Y113.65 E33.2977
