;FLAVOR:Marlin
;TIME:5507
;Filament used: 3.03341m
;Layer height: 0.2
;MINX:62.2
;MINY:87.2
;MINZ:0.2
;MAXX:157.8
;MAXY:132.838
;MAXZ:11.6
;Generated with Creality Slicer 4.8.2-205
M140 S60
M105
M190 S60
M104 S200
M105
M109 S200
M82 ;absolute extrusion mode

G28 ;Home

G92 E0 ;Reset Extruder
G1 Z2.0 F3000 ;Move Z Axis up
G1 X10.1 Y20 Z0.28 F5000.0 ;Move to start position
G1 X10.1 Y200.0 Z0.28 F1500.0 E15 ;Draw the first line
G1 X10.4 Y200.0 Z0.28 F5000.0 ;Move to side a little
G1 X10.4 Y20 Z0.28 F1500.0 E30 ;Draw the second line
G92 E0 ;Reset Extruder
G1 Z2.0 F3000 ;Move Z Axis up

G92 E0
G92 E0
G1 F2400 E-0.8
;LAYER_COUNT:58
;LAYER:0
M107
G0 F6000 X65.938 Y89.314 Z0.2
;TYPE:SKIRT
G1 F2400 E0
G1 F1200 X66.577 Y88.841 E0.02644
G1 X67.247 Y88.441 E0.0524
G1 X67.588 Y88.26 E0.06524
G1 X68.303 Y87.926 E0.09148
G1 X69.015 Y87.676 E0.11658
G1 X69.387 Y87.565 E0.12949
G1 X70.154 Y87.377 E0.15576
G1 X70.806 Y87.281 E0.17768
G1 X71.179 Y87.242 E0.19015
G1 X71.99 Y87.2 E0.21716
G1 X148.047 Y87.2 E2.74683
G1 X148.831 Y87.239 E2.77294
G1 X149.138 Y87.27 E2.7832
G1 X149.918 Y87.389 E2.80944
G1 X150.683 Y87.587 E2.83573
G1 X150.95 Y87.685 E2.84519
G1 X151.232 Y87.762 E2.85491
G1 X151.969 Y88.045 E2.88117
G1 X152.504 Y88.306 E2.90096
G1 X152.986 Y88.565 E2.91916
G1 X153.662 Y88.974 E2.94544
G1 X154.293 Y89.448 E2.97169
G1 X154.873 Y89.985 E2.99798
G1 X155.216 Y90.36 E3.01488
G1 X155.416 Y90.596 E3.02517
G1 X155.829 Y91.101 E3.04687
G1 X156.297 Y91.737 E3.07313
G1 X156.699 Y92.417 E3.09941
G1 X157.03 Y93.134 E3.12567
G1 X157.259 Y93.788 E3.14872
G1 X157.429 Y94.352 E3.16831
G1 X157.618 Y95.119 E3.19459
G1 X157.722 Y95.823 E3.21826
G1 X157.761 Y96.211 E3.23123
G1 X157.8 Y96.991 E3.2572
G1 X157.8 Y103.833 E3.48477
G1 X157.76 Y104.622 E3.51104
G1 X157.641 Y105.402 E3.53729
G1 X157.443 Y106.167 E3.56357
G1 X157.169 Y106.907 E3.58981
G1 X156.925 Y107.405 E3.60826
G1 X156.924 Y112.578 E3.78031
G1 X157.243 Y113.272 E3.80572
G1 X157.498 Y114.019 E3.83197
G1 X157.677 Y114.788 E3.85823
G1 X157.777 Y115.572 E3.88452
G1 X157.8 Y116.167 E3.90432
G1 X157.8 Y123.064 E4.13372
G1 X157.766 Y123.788 E4.15783
G1 X157.741 Y124.056 E4.16678
G1 X157.587 Y125.034 E4.19971
G1 X157.568 Y125.119 E4.2026
G1 X157.423 Y125.672 E4.22162
G1 X157.262 Y126.205 E4.24014
G1 X156.995 Y126.949 E4.26643
G1 X156.655 Y127.662 E4.2927
G1 X156.245 Y128.336 E4.31894
G1 X155.84 Y128.88 E4.3415
G1 X155.327 Y129.509 E4.36849
G1 X154.797 Y130.095 E4.39477
G1 X154.211 Y130.624 E4.42103
G1 X153.575 Y131.092 E4.44729
G1 X152.92 Y131.479 E4.4726
G1 X152.389 Y131.759 E4.49256
G1 X151.589 Y132.125 E4.52182
G1 X151.356 Y132.216 E4.53014
G1 X150.606 Y132.465 E4.55643
G1 X149.836 Y132.638 E4.58268
G1 X149.337 Y132.707 E4.59943
G1 X148.504 Y132.795 E4.62729
G1 X147.716 Y132.838 E4.65354
G1 X146.989 Y132.8 E4.67775
G1 X137.91 Y132.8 E4.97972
G1 X71.991 Y132.799 E7.1722
G1 X71.221 Y132.761 E7.19784
G1 X70.848 Y132.724 E7.2103
G1 X70.067 Y132.606 E7.23658
G1 X69.399 Y132.44 E7.25947
G1 X69.025 Y132.329 E7.27244
G1 X68.058 Y131.971 E7.30674
G1 X67.528 Y131.711 E7.32638
G1 X67.203 Y131.536 E7.33865
G1 X66.466 Y131.085 E7.36739
G1 X65.937 Y130.686 E7.38943
G1 X65.647 Y130.448 E7.40191
G1 X65.065 Y129.919 E7.42807
G1 X64.538 Y129.338 E7.45416
G1 X64.302 Y129.049 E7.46656
G1 X63.842 Y128.424 E7.49238
G1 X63.465 Y127.796 E7.51674
G1 X63.291 Y127.473 E7.52894
G1 X63.036 Y126.955 E7.54814
G1 X62.668 Y125.96 E7.58343
G1 X62.558 Y125.587 E7.59636
G1 X62.373 Y124.82 E7.6226
G1 X62.275 Y124.127 E7.64588
G1 X62.236 Y123.721 E7.65945
G1 X62.2 Y122.974 E7.68432
G1 X62.203 Y96.996 E8.54836
G1 X62.24 Y96.237 E8.57363
G1 X62.277 Y95.859 E8.58626
G1 X62.394 Y95.078 E8.61253
G1 X62.559 Y94.413 E8.63532
G1 X62.669 Y94.04 E8.64825
G1 X63.037 Y93.045 E8.68354
G1 X63.292 Y92.527 E8.70274
G1 X63.466 Y92.204 E8.71494
G1 X63.855 Y91.558 E8.74002
G1 X64.303 Y90.951 E8.76511
G1 X64.539 Y90.662 E8.77752
G1 X65.081 Y90.066 E8.80432
G1 X65.648 Y89.552 E8.82977
G1 X65.938 Y89.314 E8.84225
G0 F6000 X66.191 Y89.623
G1 F1200 X66.799 Y89.174 E8.86739
G1 X67.435 Y88.795 E8.89201
G1 X67.776 Y88.614 E8.90485
G1 X68.473 Y88.289 E8.93043
G1 X69.129 Y88.059 E8.95355
G1 X69.501 Y87.948 E8.96647
G1 X70.249 Y87.767 E8.99206
G1 X70.847 Y87.679 E9.01217
G1 X71.22 Y87.64 E9.02464
G1 X71.99 Y87.6 E9.05028
G1 X148.047 Y87.6 E11.57995
G1 X148.79 Y87.637 E11.60469
G1 X149.097 Y87.668 E11.61496
G1 X149.858 Y87.785 E11.64056
G1 X150.602 Y87.981 E11.66615
G1 X150.832 Y88.068 E11.67433
G1 X151.127 Y88.148 E11.6845
G1 X151.844 Y88.427 E11.71009
G1 X152.315 Y88.658 E11.72754
G1 X152.797 Y88.917 E11.74574
G1 X153.454 Y89.316 E11.7713
G1 X154.067 Y89.781 E11.79689
G1 X154.628 Y90.307 E11.82247
G1 X154.912 Y90.62 E11.83653
G1 X155.106 Y90.849 E11.84651
G1 X155.519 Y91.354 E11.86821
G1 X155.975 Y91.974 E11.89381
G1 X156.363 Y92.638 E11.91938
G1 X156.681 Y93.339 E11.94499
G1 X156.876 Y93.903 E11.96484
G1 X157.046 Y94.467 E11.98443
G1 X157.23 Y95.214 E12.01002
G1 X157.324 Y95.863 E12.03183
G1 X157.363 Y96.251 E12.0448
G1 X157.4 Y96.991 E12.06944
G1 X157.4 Y103.833 E12.29701
G1 X157.36 Y104.601 E12.32258
G1 X157.241 Y105.361 E12.34817
G1 X157.043 Y106.104 E12.37374
G1 X156.769 Y106.823 E12.39934
G1 X156.525 Y107.306 E12.41733
G1 X156.524 Y112.687 E12.59631
G1 X156.586 Y112.793 E12.60039
G1 X156.901 Y113.495 E12.62598
G1 X157.141 Y114.226 E12.65157
G1 X157.304 Y114.977 E12.67713
G1 X157.388 Y115.742 E12.70273
G1 X157.4 Y116.167 E12.71687
G1 X157.4 Y123.064 E12.94627
G1 X157.368 Y123.751 E12.96914
G1 X157.343 Y124.019 E12.97809
G1 X157.197 Y124.946 E13.00931
G1 X157.178 Y125.031 E13.0122
G1 X157.04 Y125.557 E13.03029
G1 X156.879 Y126.09 E13.04881
G1 X156.619 Y126.814 E13.07439
G1 X156.284 Y127.506 E13.09997
G1 X155.88 Y128.161 E13.12556
G1 X155.53 Y128.627 E13.14495
G1 X155.017 Y129.256 E13.17194
G1 X154.5 Y129.826 E13.19754
G1 X153.927 Y130.339 E13.22312
G1 X153.304 Y130.79 E13.2487
G1 X152.734 Y131.125 E13.27069
G1 X152.203 Y131.405 E13.29065
G1 X151.443 Y131.752 E13.31844
G1 X151.21 Y131.843 E13.32676
G1 X150.48 Y132.085 E13.35234
G1 X149.729 Y132.25 E13.37791
G1 X149.295 Y132.309 E13.39248
G1 X148.462 Y132.397 E13.42034
G1 X147.694 Y132.438 E13.44592
G1 X146.99 Y132.4 E13.46937
G1 X137.91 Y132.4 E13.77137
G1 X71.991 Y132.399 E15.96385
G1 X71.261 Y132.363 E15.98816
G1 X70.888 Y132.326 E16.00062
G1 X70.127 Y132.21 E16.02623
G1 X69.513 Y132.056 E16.04728
G1 X69.139 Y131.945 E16.06026
G1 X68.221 Y131.605 E16.09282
G1 X67.718 Y131.358 E16.11146
G1 X67.393 Y131.183 E16.12373
G1 X66.693 Y130.755 E16.15102
G1 X66.19 Y130.377 E16.17195
G1 X65.9 Y130.139 E16.18443
G1 X65.347 Y129.637 E16.20927
G1 X64.848 Y129.085 E16.23402
G1 X64.612 Y128.796 E16.24643
G1 X64.175 Y128.202 E16.27095
G1 X63.817 Y127.607 E16.29405
G1 X63.643 Y127.284 E16.30625
G1 X63.401 Y126.791 E16.32452
G1 X63.051 Y125.847 E16.358
G1 X62.941 Y125.474 E16.37094
G1 X62.762 Y124.726 E16.39652
G1 X62.673 Y124.089 E16.41791
G1 X62.634 Y123.683 E16.43148
G1 X62.6 Y122.974 E16.45509
G1 X62.603 Y96.996 E17.31912
G1 X62.638 Y96.276 E17.34309
G1 X62.675 Y95.898 E17.35573
G1 X62.79 Y95.138 E17.38129
G1 X62.942 Y94.526 E17.40227
G1 X63.052 Y94.153 E17.4152
G1 X63.402 Y93.209 E17.44869
G1 X63.644 Y92.716 E17.46695
G1 X63.818 Y92.393 E17.47915
G1 X64.188 Y91.78 E17.50297
G1 X64.613 Y91.204 E17.52678
G1 X64.849 Y90.915 E17.53919
G1 X65.363 Y90.348 E17.56464
G1 X65.901 Y89.861 E17.58878
G1 X66.191 Y89.623 E17.60126
G0 F6000 X66.445 Y89.932
G1 F1200 X67.021 Y89.507 E17.62506
G1 X67.622 Y89.148 E17.64835
G1 X67.963 Y88.967 E17.66119
G1 X68.642 Y88.652 E17.68608
G1 X69.243 Y88.442 E17.70726
G1 X69.615 Y88.331 E17.72017
G1 X70.343 Y88.156 E17.74507
G1 X70.889 Y88.077 E17.76342
G1 X71.262 Y88.038 E17.7759
G1 X71.99 Y88 E17.80014
G1 X148.047 Y88 E20.32981
G1 X148.75 Y88.035 E20.35322
G1 X149.057 Y88.066 E20.36348
G1 X149.796 Y88.181 E20.38836
G1 X150.519 Y88.374 E20.41325
G1 X150.728 Y88.455 E20.4207
G1 X151.021 Y88.535 E20.4308
G1 X151.717 Y88.808 E20.45567
G1 X152.125 Y89.011 E20.47083
G1 X152.607 Y89.27 E20.48903
G1 X153.246 Y89.659 E20.51391
G1 X153.84 Y90.113 E20.53877
G1 X154.609 Y90.88 E20.5749
G1 X154.797 Y91.103 E20.5846
G1 X155.21 Y91.608 E20.6063
G1 X155.652 Y92.211 E20.63116
G1 X156.027 Y92.858 E20.65604
G1 X156.33 Y93.542 E20.68092
G1 X156.493 Y94.019 E20.69769
G1 X156.663 Y94.583 E20.71728
G1 X156.84 Y95.31 E20.74216
G1 X156.926 Y95.903 E20.76209
G1 X156.965 Y96.291 E20.77506
G1 X157 Y96.991 E20.79837
G1 X157 Y103.833 E21.02594
G1 X156.96 Y104.58 E21.05082
G1 X156.841 Y105.318 E21.07568
G1 X156.643 Y106.04 E21.10058
G1 X156.37 Y106.736 E21.12545
G1 X156.125 Y107.205 E21.14305
G1 X156.124 Y112.796 E21.32901
G1 X156.258 Y113.03 E21.33798
G1 X156.557 Y113.716 E21.36287
G1 X156.781 Y114.43 E21.38775
G1 X156.928 Y115.163 E21.41262
G1 X157 Y116.167 E21.4461
G1 X157 Y123.064 E21.67549
G1 X156.97 Y123.714 E21.69714
G1 X156.945 Y123.982 E21.70609
G1 X156.806 Y124.859 E21.73562
G1 X156.787 Y124.944 E21.73852
G1 X156.657 Y125.441 E21.7556
G1 X156.496 Y125.974 E21.77412
G1 X156.242 Y126.678 E21.79902
G1 X155.914 Y127.35 E21.82389
G1 X155.516 Y127.984 E21.84878
G1 X155.22 Y128.374 E21.86507
G1 X154.707 Y129.003 E21.89207
G1 X154.204 Y129.557 E21.91695
G1 X153.644 Y130.054 E21.94186
G1 X153.035 Y130.488 E21.96673
G1 X152.547 Y130.771 E21.98549
G1 X152.016 Y131.051 E22.00546
G1 X151.298 Y131.379 E22.03171
G1 X151.065 Y131.47 E22.04003
G1 X150.354 Y131.705 E22.06494
G1 X149.253 Y131.911 E22.10219
G1 X148.42 Y131.999 E22.13005
G1 X147.673 Y132.038 E22.15493
G1 X146.994 Y132 E22.17755
G1 X137.91 Y132 E22.47969
G1 X71.991 Y131.999 E24.67216
G1 X71.3 Y131.965 E24.69517
G1 X70.927 Y131.928 E24.70764
G1 X70.188 Y131.814 E24.73251
G1 X69.626 Y131.673 E24.75178
G1 X69.252 Y131.562 E24.76476
G1 X68.383 Y131.24 E24.79558
G1 X67.907 Y131.006 E24.81322
G1 X67.582 Y130.831 E24.8255
G1 X66.919 Y130.425 E24.85136
G1 X66.444 Y130.068 E24.87112
G1 X66.154 Y129.83 E24.8836
G1 X65.63 Y129.354 E24.90714
G1 X65.158 Y128.832 E24.93055
G1 X64.922 Y128.543 E24.94296
G1 X64.508 Y127.98 E24.9662
G1 X64.169 Y127.417 E24.98806
G1 X63.995 Y127.094 E25.00026
G1 X63.766 Y126.627 E25.01756
G1 X63.435 Y125.734 E25.04924
G1 X63.325 Y125.361 E25.06217
G1 X63.152 Y124.633 E25.08706
G1 X63.071 Y124.05 E25.10664
G1 X63.032 Y123.644 E25.1202
G1 X63 Y122.974 E25.14251
G1 X63.003 Y96.996 E26.00654
G1 X63.036 Y96.315 E26.02922
G1 X63.073 Y95.937 E26.04185
G1 X63.186 Y95.198 E26.06672
G1 X63.326 Y94.639 E26.08589
G1 X63.436 Y94.266 E26.09882
G1 X63.767 Y93.373 E26.1305
G1 X63.996 Y92.906 E26.14779
G1 X64.17 Y92.583 E26.16
G1 X64.521 Y92.002 E26.18257
G1 X64.923 Y91.457 E26.2051
G1 X65.159 Y91.168 E26.21751
G1 X65.646 Y90.631 E26.24162
G1 X66.155 Y90.17 E26.26446
G1 X66.445 Y89.932 E26.27694
G0 F6000 X66.699 Y90.241
G1 F1200 X67.243 Y89.839 E26.29944
G1 X67.81 Y89.501 E26.32139
G1 X68.151 Y89.32 E26.33423
G1 X68.81 Y89.016 E26.35837
G1 X69.358 Y88.826 E26.37766
G1 X69.73 Y88.715 E26.39057
G1 X70.436 Y88.545 E26.41473
G1 X70.931 Y88.475 E26.43135
G1 X71.304 Y88.436 E26.44383
G1 X71.99 Y88.4 E26.46667
G1 X148.047 Y88.4 E28.99634
G1 X148.71 Y88.433 E29.01842
G1 X149.017 Y88.464 E29.02868
G1 X149.735 Y88.577 E29.05286
G1 X150.436 Y88.768 E29.07702
G1 X150.613 Y88.838 E29.08335
G1 X150.915 Y88.921 E29.09377
G1 X151.59 Y89.19 E29.11794
G1 X151.936 Y89.363 E29.1308
G1 X152.418 Y89.622 E29.149
G1 X153.038 Y90.001 E29.17317
G1 X153.613 Y90.445 E29.19734
G1 X154.305 Y91.141 E29.22998
G1 X154.487 Y91.356 E29.23935
G1 X154.9 Y91.861 E29.26105
G1 X155.328 Y92.447 E29.28518
G1 X155.689 Y93.078 E29.30936
G1 X155.979 Y93.744 E29.33352
G1 X156.11 Y94.134 E29.3472
G1 X156.28 Y94.698 E29.3668
G1 X156.451 Y95.404 E29.39096
G1 X156.528 Y95.943 E29.40907
G1 X156.567 Y96.331 E29.42204
G1 X156.6 Y96.991 E29.44402
G1 X156.6 Y103.833 E29.67158
G1 X156.56 Y104.558 E29.69573
G1 X156.441 Y105.275 E29.71991
G1 X156.243 Y105.974 E29.74407
G1 X155.97 Y106.647 E29.76822
G1 X155.725 Y107.101 E29.78538
G1 X155.724 Y112.901 E29.97829
G1 X155.928 Y113.266 E29.9922
G1 X156.211 Y113.935 E30.01636
G1 X156.419 Y114.631 E30.04052
G1 X156.549 Y115.346 E30.06469
G1 X156.6 Y116.167 E30.09205
G1 X156.6 Y123.064 E30.32145
G1 X156.571 Y123.677 E30.34186
G1 X156.546 Y123.945 E30.35081
G1 X156.416 Y124.772 E30.37865
G1 X156.397 Y124.857 E30.38155
G1 X156.274 Y125.325 E30.39764
G1 X156.113 Y125.858 E30.41616
G1 X155.865 Y126.541 E30.44033
G1 X155.544 Y127.193 E30.4645
G1 X155.152 Y127.805 E30.48867
G1 X154.91 Y128.121 E30.50191
G1 X154.397 Y128.75 E30.52891
G1 X153.907 Y129.287 E30.55309
G1 X153.362 Y129.767 E30.57724
G1 X152.767 Y130.184 E30.60141
G1 X152.36 Y130.417 E30.61701
G1 X151.829 Y130.697 E30.63697
G1 X151.152 Y131.007 E30.66174
G1 X150.919 Y131.098 E30.67006
G1 X150.229 Y131.324 E30.69421
G1 X149.211 Y131.513 E30.72864
G1 X148.378 Y131.601 E30.7565
G1 X147.653 Y131.638 E30.78065
G1 X146.985 Y131.6 E30.8029
G1 X137.91 Y131.6 E31.10474
G1 X71.991 Y131.599 E33.29721
G1 X71.34 Y131.567 E33.31889
G1 X70.967 Y131.53 E33.33136
G1 X70.249 Y131.418 E33.35553
G1 X69.74 Y131.289 E33.37299
G1 X69.366 Y131.178 E33.38597
G1 X68.545 Y130.874 E33.41509
G1 X68.097 Y130.654 E33.43169
G1 X67.772 Y130.479 E33.44396
G1 X67.146 Y130.096 E33.46837
G1 X66.698 Y129.759 E33.48702
G1 X66.408 Y129.521 E33.4995
G1 X65.913 Y129.071 E33.52175
G1 X65.468 Y128.579 E33.54381
G1 X65.232 Y128.29 E33.55622
G1 X64.84 Y127.758 E33.5782
G1 X64.521 Y127.227 E33.5988
G1 X64.347 Y126.904 E33.61101
G1 X64.13 Y126.462 E33.62738
G1 X63.819 Y125.621 E33.65721
G1 X63.709 Y125.248 E33.67014
G1 X63.542 Y124.541 E33.6943
G1 X63.469 Y124.012 E33.71206
G1 X63.43 Y123.606 E33.72563
G1 X63.4 Y122.974 E33.74667
G1 X63.403 Y96.996 E34.61071
G1 X63.434 Y96.354 E34.63208
G1 X63.471 Y95.976 E34.64472
G1 X63.582 Y95.258 E34.66888
G1 X63.71 Y94.752 E34.68624
G1 X63.82 Y94.379 E34.69917
G1 X64.131 Y93.538 E34.729
G1 X64.348 Y93.096 E34.74537
G1 X64.522 Y92.773 E34.75758
G1 X64.853 Y92.224 E34.7789
G1 X65.233 Y91.71 E34.80016
G1 X65.469 Y91.421 E34.81257
G1 X65.929 Y90.914 E34.83534
G1 X66.409 Y90.479 E34.85688
G1 X66.699 Y90.241 E34.86936
G0 F6000 X66.953 Y90.55
G1 F1200 X67.465 Y90.172 E34.89053
G1 X67.997 Y89.855 E34.91113
G1 X68.338 Y89.674 E34.92397
G1 X68.978 Y89.379 E34.94741
G1 X69.472 Y89.209 E34.96478
G1 X69.844 Y89.098 E34.97769
G1 X70.529 Y88.935 E35.00111
G1 X70.972 Y88.873 E35.01599
G1 X71.345 Y88.834 E35.02847
G1 X71.99 Y88.8 E35.04995
G1 X148.047 Y88.8 E37.57961
G1 X148.67 Y88.831 E37.60036
G1 X148.977 Y88.862 E37.61062
G1 X149.672 Y88.973 E37.63403
G1 X150.35 Y89.161 E37.65743
G1 X150.5 Y89.221 E37.66281
G1 X150.808 Y89.307 E37.67344
G1 X151.747 Y89.716 E37.70751
G1 X152.229 Y89.975 E37.72571
G1 X152.829 Y90.342 E37.7491
G1 X153.384 Y90.776 E37.77253
G1 X154.001 Y91.401 E37.80174
G1 X154.177 Y91.609 E37.81081
G1 X154.59 Y92.114 E37.8325
G1 X155.004 Y92.683 E37.85591
G1 X155.351 Y93.296 E37.87934
G1 X155.727 Y94.25 E37.91344
G1 X155.897 Y94.814 E37.93304
G1 X156.062 Y95.498 E37.95644
G1 X156.13 Y95.983 E37.97273
G1 X156.169 Y96.371 E37.9857
G1 X156.2 Y96.991 E38.00634
G1 X156.2 Y103.833 E38.23391
G1 X156.16 Y104.536 E38.25733
G1 X156.041 Y105.23 E38.28075
G1 X155.843 Y105.905 E38.30415
G1 X155.571 Y106.554 E38.32755
G1 X155.325 Y106.992 E38.34426
G1 X155.324 Y113.002 E38.54415
G1 X155.597 Y113.501 E38.56307
G1 X155.864 Y114.152 E38.58647
G1 X156.054 Y114.83 E38.60989
G1 X156.167 Y115.525 E38.63331
G1 X156.2 Y116.167 E38.65469
G1 X156.2 Y123.064 E38.88409
G1 X156.173 Y123.64 E38.90327
G1 X156.148 Y123.908 E38.91222
G1 X156.026 Y124.685 E38.93838
G1 X156.007 Y124.77 E38.94128
G1 X155.891 Y125.21 E38.95641
G1 X155.73 Y125.743 E38.97493
G1 X155.489 Y126.404 E38.99833
G1 X155.174 Y127.034 E39.02176
G1 X154.6 Y127.869 E39.05546
G1 X154.087 Y128.498 E39.08245
G1 X153.611 Y129.017 E39.10588
G1 X153.08 Y129.479 E39.12929
G1 X152.5 Y129.878 E39.1527
G1 X152.174 Y130.063 E39.16517
G1 X151.643 Y130.343 E39.18514
G1 X151.007 Y130.634 E39.2084
G1 X150.774 Y130.725 E39.21672
G1 X150.104 Y130.944 E39.24016
G1 X149.169 Y131.116 E39.27178
G1 X148.336 Y131.204 E39.29964
G1 X147.633 Y131.238 E39.32305
G1 X147.001 Y131.2 E39.34411
