;FLAVOR:Marlin
;TIME:5957
;Filament used: 3.14711m
;Layer height: 0.2
;MINX:62.2
;MINY:45.904
;MINZ:0.2
;MAXX:157.8
;MAXY:91.504
;MAXZ:11.2
;Generated with Creality Slicer 4.8.2-205
M140 S40
M105
M190 S40
M104 S200
M105
M109 S200
M82 ;absolute extrusion mode

G28 ;Home

G92 E0 ;Reset Extruder
G1 Z2.0 F3000 ;Move Z Axis up
G1 X10.1 Y20 Z0.28 F5000.0 ;Move to start position
G1 X10.1 Y200.0 Z0.28 F1500.0 E15 ;Draw the first line
G1 X10.4 Y200.0 Z0.28 F5000.0 ;Move to side a little
G1 X10.4 Y20 Z0.28 F1500.0 E30 ;Draw the second line
G92 E0 ;Reset Extruder
G1 Z2.0 F3000 ;Move Z Axis up

G92 E0
G92 E0
G1 F2400 E-0.8
;LAYER_COUNT:56
;LAYER:0
M107
G0 F6000 X64.311 Y49.632 Z0.2
;TYPE:SKIRT
G1 F2400 E0
G1 F1200 X64.558 Y49.332 E0.01292
G1 X65.091 Y48.749 E0.0392
G1 X65.618 Y48.272 E0.06284
G1 X65.92 Y48.023 E0.07586
G1 X66.554 Y47.552 E0.10213
G1 X67.207 Y47.161 E0.12744
G1 X67.559 Y46.973 E0.14071
G1 X68.274 Y46.637 E0.16699
G1 X68.991 Y46.383 E0.19229
G1 X69.364 Y46.271 E0.20524
G1 X70.131 Y46.082 E0.23152
G1 X70.851 Y45.978 E0.25571
G1 X71.231 Y45.941 E0.26841
G1 X71.987 Y45.904 E0.29359
G1 X148.009 Y45.904 E2.82209
G1 X148.813 Y45.946 E2.84887
G1 X149.199 Y45.986 E2.86177
G1 X149.979 Y46.107 E2.88803
G1 X150.666 Y46.282 E2.91161
G1 X151.034 Y46.394 E2.9244
G1 X151.777 Y46.662 E2.95067
G1 X152.46 Y46.988 E2.97584
G1 X152.813 Y47.178 E2.98918
G1 X153.488 Y47.587 E3.01543
G1 X154.096 Y48.042 E3.04068
G1 X154.395 Y48.29 E3.0536
G1 X154.976 Y48.825 E3.07987
G1 X155.44 Y49.34 E3.10293
G1 X155.685 Y49.638 E3.11576
G1 X156.155 Y50.273 E3.14204
G1 X156.531 Y50.9 E3.16635
G1 X156.718 Y51.248 E3.17949
G1 X157.056 Y51.962 E3.20577
G1 X157.312 Y52.678 E3.23106
G1 X157.425 Y53.051 E3.24402
G1 X157.615 Y53.818 E3.2703
G1 X157.723 Y54.558 E3.29517
G1 X157.761 Y54.949 E3.30824
G1 X157.798 Y55.703 E3.33335
G1 X157.8 Y81.709 E4.19831
G1 X157.756 Y82.538 E4.22592
G1 X157.715 Y82.922 E4.23877
G1 X157.591 Y83.702 E4.26504
G1 X157.424 Y84.356 E4.28749
G1 X157.311 Y84.729 E4.30045
G1 X157.044 Y85.472 E4.32671
G1 X156.717 Y86.158 E4.35199
G1 X156.529 Y86.508 E4.3652
G1 X156.121 Y87.184 E4.39146
G1 X155.676 Y87.779 E4.41617
G1 X155.427 Y88.081 E4.42919
G1 X154.895 Y88.664 E4.45544
G1 X154.375 Y89.134 E4.47876
G1 X154.077 Y89.38 E4.49161
G1 X153.443 Y89.851 E4.51788
G1 X152.795 Y90.24 E4.54301
G1 X152.446 Y90.427 E4.55618
G1 X151.732 Y90.764 E4.58244
G1 X151.005 Y91.022 E4.6081
G1 X150.632 Y91.134 E4.62105
G1 X149.865 Y91.323 E4.64733
G1 X149.223 Y91.419 E4.66892
G1 X148.851 Y91.459 E4.68136
G1 X148.017 Y91.504 E4.70914
G1 X71.973 Y91.504 E7.23838
G1 X71.207 Y91.466 E7.26388
G1 X70.842 Y91.43 E7.27608
G1 X70.061 Y91.313 E7.30235
G1 X69.346 Y91.133 E7.32687
G1 X68.973 Y91.02 E7.33984
G1 X68.23 Y90.753 E7.36609
G1 X67.566 Y90.438 E7.39054
G1 X67.217 Y90.252 E7.40369
G1 X66.54 Y89.846 E7.42995
G1 X65.924 Y89.387 E7.4555
G1 X65.622 Y89.138 E7.46852
G1 X65.039 Y88.606 E7.49477
G1 X64.55 Y88.062 E7.5191
G1 X64.301 Y87.758 E7.53217
G1 X63.832 Y87.123 E7.55842
G1 X63.456 Y86.493 E7.58282
G1 X63.27 Y86.145 E7.59595
G1 X62.933 Y85.43 E7.62224
G1 X62.676 Y84.704 E7.64785
G1 X62.565 Y84.333 E7.66073
G1 X62.378 Y83.566 E7.68699
G1 X62.277 Y82.873 E7.71028
G1 X62.239 Y82.493 E7.72299
G1 X62.2 Y81.717 E7.74883
G1 X62.2 Y55.653 E8.61572
G1 X62.24 Y54.866 E8.64193
G1 X62.275 Y54.521 E8.65346
G1 X62.394 Y53.74 E8.67974
G1 X62.572 Y53.041 E8.70373
G1 X62.685 Y52.669 E8.71666
G1 X62.952 Y51.926 E8.74292
G1 X63.27 Y51.258 E8.76753
G1 X63.455 Y50.912 E8.78058
G1 X63.862 Y50.236 E8.80682
G1 X64.311 Y49.632 E8.83185
G0 F6000 X64.62 Y49.886
G1 F1200 X64.867 Y49.586 E8.84478
G1 X65.386 Y49.019 E8.87034
G1 X65.872 Y48.58 E8.89213
G1 X66.174 Y48.331 E8.90515
G1 X66.793 Y47.874 E8.93074
G1 X67.396 Y47.514 E8.9541
G1 X67.748 Y47.326 E8.96737
G1 X68.444 Y46.999 E8.99294
G1 X69.106 Y46.766 E9.01629
G1 X69.479 Y46.654 E9.02924
G1 X70.226 Y46.471 E9.05482
G1 X70.89 Y46.376 E9.07713
G1 X71.27 Y46.339 E9.08983
G1 X71.987 Y46.304 E9.1137
G1 X148.009 Y46.304 E11.64221
G1 X148.772 Y46.343 E11.66762
G1 X149.158 Y46.383 E11.68052
G1 X149.918 Y46.502 E11.70611
G1 X150.55 Y46.665 E11.72782
G1 X150.918 Y46.777 E11.74061
G1 X151.641 Y47.039 E11.76619
G1 X152.27 Y47.34 E11.78938
G1 X152.623 Y47.53 E11.80272
G1 X153.281 Y47.929 E11.82831
G1 X153.84 Y48.35 E11.85159
G1 X154.139 Y48.598 E11.86451
G1 X154.705 Y49.119 E11.89009
G1 X155.131 Y49.594 E11.91131
G1 X155.376 Y49.892 E11.92414
G1 X155.833 Y50.511 E11.94974
G1 X156.178 Y51.089 E11.97212
G1 X156.365 Y51.437 E11.98526
G1 X156.694 Y52.133 E12.01087
G1 X156.929 Y52.794 E12.0342
G1 X157.042 Y53.167 E12.04717
G1 X157.227 Y53.914 E12.07276
G1 X157.325 Y54.597 E12.09571
G1 X157.363 Y54.988 E12.10878
G1 X157.398 Y55.703 E12.13259
G1 X157.4 Y81.709 E12.99755
G1 X157.358 Y82.496 E13.02376
G1 X157.317 Y82.88 E13.03661
G1 X157.196 Y83.639 E13.06217
G1 X157.041 Y84.24 E13.08281
G1 X156.928 Y84.613 E13.09578
G1 X156.667 Y85.336 E13.12134
G1 X156.365 Y85.969 E13.14467
G1 X156.177 Y86.319 E13.15788
G1 X155.778 Y86.976 E13.18345
G1 X155.368 Y87.525 E13.20624
G1 X155.119 Y87.827 E13.21926
G1 X154.599 Y88.394 E13.24485
G1 X154.12 Y88.826 E13.2663
G1 X153.822 Y89.072 E13.27915
G1 X153.204 Y89.53 E13.30474
G1 X152.606 Y89.888 E13.32792
G1 X152.257 Y90.075 E13.34109
G1 X151.561 Y90.402 E13.36666
G1 X150.89 Y90.639 E13.39033
G1 X150.517 Y90.751 E13.40329
G1 X149.77 Y90.934 E13.42887
G1 X149.18 Y91.022 E13.44871
G1 X148.808 Y91.062 E13.46115
G1 X148.017 Y91.104 E13.4875
G1 X71.973 Y91.104 E16.01673
G1 X71.247 Y91.068 E16.04091
G1 X70.882 Y91.032 E16.0531
G1 X70.121 Y90.917 E16.0787
G1 X69.462 Y90.75 E16.10131
G1 X69.089 Y90.637 E16.11428
G1 X68.366 Y90.376 E16.13984
G1 X67.755 Y90.085 E16.16235
G1 X67.406 Y89.899 E16.17551
G1 X66.747 Y89.503 E16.20108
G1 X66.178 Y89.079 E16.22468
G1 X65.876 Y88.83 E16.2377
G1 X65.309 Y88.31 E16.26329
G1 X64.859 Y87.809 E16.28568
G1 X64.61 Y87.505 E16.29875
G1 X64.154 Y86.885 E16.32435
G1 X63.809 Y86.304 E16.34683
G1 X63.623 Y85.956 E16.35995
G1 X63.296 Y85.26 E16.38553
G1 X63.06 Y84.589 E16.40918
G1 X62.949 Y84.218 E16.42206
G1 X62.767 Y83.471 E16.44764
G1 X62.675 Y82.833 E16.46908
G1 X62.637 Y82.453 E16.48178
G1 X62.6 Y81.717 E16.50629
G1 X62.6 Y55.653 E17.37318
G1 X62.638 Y54.906 E17.39806
G1 X62.673 Y54.561 E17.40959
G1 X62.79 Y53.801 E17.43517
G1 X62.954 Y53.157 E17.45727
G1 X63.067 Y52.785 E17.4702
G1 X63.329 Y52.062 E17.49578
G1 X63.622 Y51.447 E17.51844
G1 X63.807 Y51.101 E17.53149
G1 X64.205 Y50.442 E17.55709
G1 X64.62 Y49.886 E17.58017
G0 F6000 X64.929 Y50.141
G1 F1200 X65.176 Y49.841 E17.59309
G1 X65.682 Y49.289 E17.618
G1 X66.127 Y48.889 E17.6379
G1 X66.429 Y48.64 E17.65092
G1 X67.031 Y48.196 E17.6758
G1 X67.584 Y47.866 E17.69722
G1 X67.936 Y47.678 E17.71049
G1 X68.614 Y47.362 E17.73537
G1 X69.221 Y47.149 E17.75676
G1 X69.594 Y47.037 E17.76972
G1 X70.321 Y46.86 E17.7946
G1 X70.929 Y46.774 E17.81503
G1 X71.309 Y46.737 E17.82773
G1 X71.987 Y46.704 E17.8503
G1 X148.009 Y46.704 E20.37881
G1 X148.731 Y46.741 E20.40285
G1 X149.117 Y46.781 E20.41576
G1 X149.855 Y46.898 E20.44061
G1 X150.433 Y47.047 E20.46046
G1 X150.801 Y47.159 E20.47326
G1 X151.504 Y47.415 E20.49814
G1 X152.081 Y47.692 E20.51943
G1 X152.434 Y47.882 E20.53276
G1 X153.072 Y48.271 E20.55762
G1 X153.585 Y48.658 E20.57899
G1 X153.884 Y48.906 E20.59191
G1 X154.433 Y49.414 E20.61679
G1 X154.822 Y49.849 E20.6362
G1 X155.067 Y50.147 E20.64903
G1 X155.511 Y50.749 E20.67391
G1 X155.826 Y51.279 E20.69441
G1 X156.013 Y51.627 E20.70755
G1 X156.332 Y52.304 E20.73244
G1 X156.546 Y52.91 E20.75382
G1 X156.659 Y53.283 E20.76678
G1 X156.838 Y54.01 E20.79169
G1 X156.927 Y54.636 E20.81272
G1 X156.965 Y55.027 E20.82578
G1 X156.998 Y55.703 E20.84829
G1 X157 Y81.709 E21.71325
G1 X156.96 Y82.453 E21.73804
G1 X156.919 Y82.837 E21.75088
G1 X156.8 Y83.576 E21.77578
G1 X156.658 Y84.124 E21.79461
G1 X156.545 Y84.497 E21.80757
G1 X156.29 Y85.2 E21.83244
G1 X156.013 Y85.779 E21.85379
G1 X155.825 Y86.129 E21.867
G1 X155.436 Y86.769 E21.89191
G1 X155.059 Y87.27 E21.91277
G1 X154.81 Y87.572 E21.92579
G1 X154.304 Y88.123 E21.95067
G1 X153.865 Y88.517 E21.97029
G1 X153.567 Y88.763 E21.98314
G1 X152.966 Y89.208 E22.00801
G1 X152.417 Y89.535 E22.02926
G1 X152.068 Y89.722 E22.04243
G1 X151.391 Y90.04 E22.06731
G1 X150.775 Y90.256 E22.08902
G1 X150.402 Y90.368 E22.10198
G1 X149.675 Y90.545 E22.12686
G1 X149.137 Y90.624 E22.14495
G1 X148.765 Y90.664 E22.15739
G1 X148.017 Y90.704 E22.18231
G1 X71.973 Y90.704 E24.71154
G1 X71.286 Y90.67 E24.73442
G1 X70.921 Y90.634 E24.74662
G1 X70.181 Y90.521 E24.77151
G1 X69.578 Y90.367 E24.79221
G1 X69.205 Y90.254 E24.80518
G1 X68.502 Y89.999 E24.83005
G1 X67.943 Y89.732 E24.85065
G1 X67.594 Y89.546 E24.86381
G1 X66.953 Y89.16 E24.88869
G1 X66.433 Y88.77 E24.91031
G1 X66.131 Y88.521 E24.92333
G1 X65.58 Y88.015 E24.94821
G1 X65.169 Y87.556 E24.96871
G1 X64.92 Y87.252 E24.98177
G1 X64.477 Y86.648 E25.00669
G1 X64.161 Y86.116 E25.02727
G1 X63.975 Y85.768 E25.04039
G1 X63.659 Y85.09 E25.06527
G1 X63.443 Y84.474 E25.08698
G1 X63.332 Y84.103 E25.09986
G1 X63.156 Y83.376 E25.12474
G1 X63.073 Y82.794 E25.1443
G1 X63.035 Y82.414 E25.157
G1 X63 Y81.717 E25.18021
G1 X63 Y55.653 E26.0471
G1 X63.036 Y54.946 E26.07065
G1 X63.071 Y54.601 E26.08218
G1 X63.186 Y53.862 E26.10705
G1 X63.337 Y53.273 E26.12728
G1 X63.45 Y52.901 E26.14021
G1 X63.706 Y52.198 E26.16509
G1 X63.975 Y51.635 E26.18585
G1 X64.16 Y51.289 E26.1989
G1 X64.547 Y50.65 E26.22374
G1 X64.929 Y50.141 E26.24491
G0 F6000 X65.238 Y50.395
G1 F1200 X65.485 Y50.095 E26.25784
G1 X65.977 Y49.56 E26.28201
G1 X66.381 Y49.198 E26.30005
G1 X66.683 Y48.949 E26.31307
G1 X67.268 Y48.518 E26.33724
G1 X67.773 Y48.219 E26.35676
G1 X68.125 Y48.031 E26.37003
G1 X68.783 Y47.725 E26.39417
G1 X69.336 Y47.532 E26.41365
G1 X69.709 Y47.42 E26.4266
G1 X70.415 Y47.25 E26.45075
G1 X70.967 Y47.172 E26.4693
G1 X71.347 Y47.135 E26.48199
G1 X71.987 Y47.104 E26.50331
G1 X148.009 Y47.104 E29.03181
G1 X148.689 Y47.139 E29.05445
G1 X149.075 Y47.179 E29.06736
G1 X149.793 Y47.294 E29.09155
G1 X150.317 Y47.43 E29.10955
G1 X150.685 Y47.542 E29.12235
G1 X151.367 Y47.791 E29.14649
G1 X151.891 Y48.044 E29.16585
G1 X152.244 Y48.234 E29.17918
G1 X152.864 Y48.613 E29.20335
G1 X153.33 Y48.966 E29.22279
G1 X153.629 Y49.214 E29.23571
G1 X154.161 Y49.708 E29.25986
G1 X154.513 Y50.103 E29.27746
G1 X154.758 Y50.401 E29.29029
G1 X155.188 Y50.986 E29.31444
G1 X155.474 Y51.468 E29.33308
G1 X155.661 Y51.816 E29.34622
G1 X155.969 Y52.474 E29.37038
G1 X156.164 Y53.026 E29.38985
G1 X156.277 Y53.399 E29.40282
G1 X156.449 Y54.105 E29.42699
G1 X156.529 Y54.675 E29.44613
G1 X156.567 Y55.066 E29.4592
G1 X156.598 Y55.703 E29.48041
G1 X156.6 Y81.709 E30.34537
G1 X156.563 Y82.411 E30.36875
G1 X156.522 Y82.795 E30.3816
G1 X156.405 Y83.512 E30.40576
G1 X156.276 Y84.008 E30.4228
G1 X156.163 Y84.381 E30.43577
G1 X155.914 Y85.063 E30.45992
G1 X155.66 Y85.59 E30.47937
G1 X155.472 Y85.94 E30.49259
G1 X155.094 Y86.56 E30.51674
G1 X154.75 Y87.016 E30.53574
G1 X154.501 Y87.318 E30.54876
G1 X154.009 Y87.852 E30.57291
G1 X153.611 Y88.209 E30.59069
G1 X153.313 Y88.455 E30.60354
G1 X152.728 Y88.886 E30.62771
G1 X152.228 Y89.183 E30.64705
G1 X151.879 Y89.37 E30.66022
G1 X151.221 Y89.677 E30.68437
G1 X150.66 Y89.873 E30.70414
G1 X150.287 Y89.985 E30.71709
G1 X149.581 Y90.155 E30.74124
G1 X149.095 Y90.226 E30.75758
G1 X148.723 Y90.266 E30.77002
G1 X148.017 Y90.304 E30.79354
G1 X71.973 Y90.304 E33.32277
G1 X71.325 Y90.272 E33.34435
G1 X70.96 Y90.236 E33.35655
G1 X70.242 Y90.125 E33.38071
G1 X69.694 Y89.985 E33.39952
G1 X69.321 Y89.872 E33.41249
G1 X68.639 Y89.623 E33.43664
G1 X68.131 Y89.379 E33.45538
G1 X67.782 Y89.193 E33.46853
G1 X67.161 Y88.817 E33.49268
G1 X66.687 Y88.461 E33.5124
G1 X66.385 Y88.212 E33.52541
G1 X65.851 Y87.72 E33.54956
G1 X65.478 Y87.302 E33.5682
G1 X65.229 Y86.998 E33.58127
G1 X64.8 Y86.412 E33.60542
G1 X64.514 Y85.927 E33.62415
G1 X64.328 Y85.579 E33.63727
G1 X64.022 Y84.921 E33.66141
G1 X63.826 Y84.36 E33.68117
G1 X63.715 Y83.989 E33.69405
G1 X63.545 Y83.283 E33.71821
G1 X63.471 Y82.754 E33.73597
G1 X63.433 Y82.374 E33.74867
G1 X63.4 Y81.717 E33.77055
G1 X63.4 Y55.653 E34.63745
G1 X63.434 Y54.987 E34.65963
G1 X63.469 Y54.642 E34.67116
G1 X63.582 Y53.924 E34.69533
G1 X63.72 Y53.39 E34.71368
G1 X63.833 Y53.018 E34.72661
G1 X64.082 Y52.335 E34.75079
G1 X64.328 Y51.824 E34.76965
G1 X64.513 Y51.478 E34.7827
G1 X64.89 Y50.857 E34.80686
G1 X65.238 Y50.395 E34.8261
G0 F6000 X65.547 Y50.649
G1 F1200 X65.794 Y50.349 E34.83903
G1 X66.271 Y49.832 E34.86242
G1 X66.636 Y49.506 E34.8787
G1 X66.938 Y49.257 E34.89172
G1 X67.506 Y48.841 E34.91514
G1 X67.961 Y48.572 E34.93272
G1 X68.313 Y48.384 E34.94599
G1 X68.952 Y48.088 E34.96941
G1 X69.451 Y47.915 E34.98698
G1 X69.824 Y47.803 E34.99993
G1 X70.509 Y47.639 E35.02336
G1 X71.006 Y47.57 E35.04005
G1 X71.386 Y47.533 E35.05275
G1 X71.987 Y47.504 E35.07276
G1 X148.009 Y47.504 E37.60126
G1 X148.648 Y47.537 E37.62254
G1 X149.034 Y47.577 E37.63545
G1 X149.729 Y47.689 E37.65886
G1 X150.2 Y47.813 E37.67506
G1 X150.568 Y47.925 E37.68786
G1 X151.229 Y48.168 E37.71128
G1 X151.701 Y48.397 E37.72873
G1 X152.054 Y48.587 E37.74206
G1 X152.654 Y48.955 E37.76547
G1 X153.074 Y49.274 E37.78301
G1 X153.373 Y49.522 E37.79593
G1 X153.889 Y50.001 E37.81935
G1 X154.204 Y50.357 E37.83516
G1 X154.449 Y50.655 E37.84799
G1 X154.865 Y51.223 E37.87141
G1 X155.121 Y51.657 E37.88817
G1 X155.308 Y52.005 E37.90131
G1 X155.606 Y52.643 E37.92473
G1 X155.781 Y53.142 E37.94232
G1 X155.894 Y53.515 E37.95528
G1 X156.059 Y54.2 E37.97871
G1 X156.131 Y54.713 E37.99594
G1 X156.169 Y55.104 E38.00901
G1 X156.198 Y55.704 E38.02899
G1 X156.2 Y81.71 E38.89395
G1 X156.165 Y82.368 E38.91587
G1 X156.124 Y82.752 E38.92871
G1 X156.01 Y83.447 E38.95214
G1 X155.893 Y83.892 E38.96744
G1 X155.78 Y84.265 E38.9804
G1 X155.538 Y84.926 E39.00382
G1 X155.308 Y85.401 E39.02137
G1 X155.12 Y85.751 E39.03458
G1 X154.752 Y86.351 E39.05799
G1 X154.442 Y86.761 E39.07509
G1 X154.193 Y87.063 E39.08811
G1 X153.715 Y87.58 E39.11153
G1 X153.356 Y87.9 E39.12752
G1 X153.058 Y88.146 E39.14038
G1 X152.491 Y88.563 E39.16379
G1 X152.039 Y88.83 E39.18125
G1 X151.69 Y89.017 E39.19441
G1 X151.052 Y89.314 E39.21782
G1 X150.545 Y89.49 E39.23567
G1 X150.172 Y89.602 E39.24862
G1 X149.487 Y89.766 E39.27205
G1 X149.052 Y89.828 E39.28667
G1 X148.68 Y89.868 E39.29911
G1 X148.017 Y89.904 E39.32119
G1 X71.973 Y89.904 E41.85043
G1 X71.364 Y89.874 E41.87071
G1 X70.999 Y89.838 E41.88291
G1 X70.304 Y89.729 E41.9063
G1 X69.81 Y89.602 E41.92327
G1 X69.437 Y89.489 E41.93623
G1 X68.776 Y89.247 E41.95964
G1 X68.319 Y89.026 E41.97653
G1 X67.97 Y88.84 E41.98968
G1 X67.369 Y88.475 E42.01307
G1 X66.942 Y88.153 E42.03086
G1 X66.64 Y87.904 E42.04388
G1 X66.123 Y87.426 E42.06729
G1 X65.788 Y87.049 E42.08407
G1 X65.539 Y86.745 E42.09714
G1 X65.124 Y86.176 E42.12056
G1 X64.867 Y85.739 E42.13742
G1 X64.681 Y85.391 E42.15055
G1 X64.385 Y84.752 E42.17397
G1 X64.209 Y84.245 E42.19182
G1 X64.098 Y83.874 E42.2047
G1 X63.935 Y83.189 E42.22812
G1 X63.869 Y82.714 E42.24407
G1 X63.831 Y82.334 E42.25677
G1 X63.8 Y81.717 E42.27732
G1 X63.8 Y55.653 E43.14421
G1 X63.832 Y55.027 E43.16506
G1 X63.867 Y54.682 E43.17659
G1 X63.977 Y53.987 E43.2
G1 X64.103 Y53.506 E43.21653
G1 X64.216 Y53.134 E43.22947
G1 X64.458 Y52.473 E43.25288
G1 X64.68 Y52.013 E43.26987
G1 X64.865 Y51.667 E43.28292
G1 X65.232 Y51.066 E43.30634
G1 X65.547 Y50.649 E43.32372
G0 F6000 X65.855 Y50.903
G1 F1200 X66.102 Y50.603 E43.33664
G1 X66.565 Y50.104 E43.35928
G1 X66.89 Y49.815 E43.37375
G1 X67.192 Y49.566 E43.38677
G1 X67.742 Y49.164 E43.40943
G1 X68.15 Y48.925 E43.42515
G1 X68.502 Y48.737 E43.43843
G1 X69.12 Y48.452 E43.46106
G1 X69.566 Y48.298 E43.47676
G1 X69.939 Y48.186 E43.48971
G1 X70.602 Y48.029 E43.51237
G1 X71.045 Y47.968 E43.52724
G1 X71.425 Y47.931 E43.53994
G1 X71.987 Y47.904 E43.55866
G1 X148.009 Y47.904 E46.08716
G1 X148.607 Y47.935 E46.10707
G1 X148.993 Y47.975 E46.11998
G1 X149.665 Y48.085 E46.14263
G1 X150.084 Y48.195 E46.15704
G1 X150.452 Y48.307 E46.16983
G1 X151.09 Y48.543 E46.19246
G1 X151.512 Y48.749 E46.20808
G1 X151.865 Y48.939 E46.22141
