;FLAVOR:Marlin
;TIME:5947
;Filament used: 3.10735m
;Layer height: 0.2
;MINX:62.201
;MINY:54.997
;MINZ:0.2
;MAXX:157.8
;MAXY:100.597
;MAXZ:11.2
;Generated with Creality Slicer 4.8.2-205
M140 S40
M105
M190 S40
M104 S200
M105
M109 S200
M82 ;absolute extrusion mode

G28 ;Home

G92 E0 ;Reset Extruder
G1 Z2.0 F3000 ;Move Z Axis up
G1 X10.1 Y20 Z0.28 F5000.0 ;Move to start position
G1 X10.1 Y200.0 Z0.28 F1500.0 E15 ;Draw the first line
G1 X10.4 Y200.0 Z0.28 F5000.0 ;Move to side a little
G1 X10.4 Y20 Z0.28 F1500.0 E30 ;Draw the second line
G92 E0 ;Reset Extruder
G1 Z2.0 F3000 ;Move Z Axis up

G92 E0
G92 E0
G1 F2400 E-0.8
;LAYER_COUNT:56
;LAYER:0
M107
G0 F6000 X64.539 Y58.459 Z0.2
;TYPE:SKIRT
G1 F2400 E0
G1 F1200 X65.081 Y57.863 E0.02679
G1 X65.648 Y57.349 E0.05225
G1 X65.938 Y57.111 E0.06473
G1 X66.577 Y56.638 E0.09117
G1 X67.245 Y56.239 E0.11705
G1 X67.582 Y56.06 E0.12974
G1 X68.297 Y55.726 E0.15599
G1 X69.033 Y55.468 E0.18193
G1 X69.409 Y55.357 E0.19497
G1 X70.176 Y55.172 E0.22121
G1 X70.825 Y55.078 E0.24302
G1 X71.217 Y55.038 E0.25613
G1 X72.009 Y54.998 E0.2825
G1 X148.032 Y54.997 E2.81104
G1 X148.808 Y55.036 E2.83688
G1 X149.158 Y55.071 E2.84858
G1 X150.133 Y55.231 E2.88144
G1 X150.678 Y55.376 E2.9002
G1 X151.052 Y55.49 E2.9132
G1 X151.795 Y55.758 E2.93947
G1 X152.479 Y56.085 E2.96469
G1 X152.8 Y56.258 E2.97682
G1 X153.444 Y56.646 E3.00182
G1 X154.063 Y57.105 E3.02745
G1 X154.352 Y57.342 E3.03989
G1 X154.936 Y57.873 E3.06614
G1 X155.465 Y58.458 E3.09237
G1 X155.704 Y58.751 E3.10495
G1 X156.162 Y59.372 E3.13061
G1 X156.561 Y60.04 E3.15649
G1 X156.74 Y60.377 E3.16918
G1 X157.074 Y61.092 E3.19543
G1 X157.331 Y61.825 E3.22126
G1 X157.443 Y62.204 E3.23441
G1 X157.628 Y62.972 E3.26068
G1 X157.724 Y63.637 E3.28303
G1 X157.761 Y64.006 E3.29537
G1 X157.8 Y64.784 E3.32127
G1 X157.8 Y90.842 E4.18797
G1 X157.762 Y91.614 E4.21367
G1 X157.728 Y91.956 E4.22511
G1 X157.61 Y92.736 E4.25134
G1 X157.446 Y93.396 E4.27396
G1 X157.336 Y93.768 E4.28687
G1 X156.969 Y94.757 E4.32195
G1 X156.717 Y95.269 E4.34093
G1 X156.545 Y95.589 E4.35301
G1 X156.153 Y96.241 E4.37832
G1 X155.694 Y96.86 E4.40395
G1 X155.457 Y97.149 E4.41638
G1 X154.926 Y97.734 E4.44266
G1 X154.396 Y98.214 E4.46644
G1 X154.09 Y98.467 E4.47965
G1 X153.523 Y98.895 E4.50327
G1 X152.769 Y99.352 E4.5326
G1 X152.429 Y99.533 E4.54541
G1 X151.714 Y99.868 E4.57167
G1 X150.964 Y100.131 E4.59811
G1 X150.583 Y100.243 E4.61131
G1 X149.815 Y100.427 E4.63758
G1 X149.149 Y100.522 E4.65996
G1 X148.774 Y100.559 E4.67249
G1 X148.008 Y100.597 E4.698
G1 X71.987 Y100.596 E7.22647
G1 X71.201 Y100.556 E7.25264
G1 X70.826 Y100.518 E7.26518
G1 X70.045 Y100.399 E7.29146
G1 X69.339 Y100.219 E7.31569
G1 X68.955 Y100.102 E7.32904
G1 X68.212 Y99.834 E7.35531
G1 X67.531 Y99.509 E7.38041
G1 X67.204 Y99.333 E7.39276
G1 X66.466 Y98.882 E7.42153
G1 X65.937 Y98.483 E7.44356
G1 X65.647 Y98.245 E7.45604
G1 X65.065 Y97.716 E7.4822
G1 X64.538 Y97.135 E7.50829
G1 X64.302 Y96.846 E7.5207
G1 X63.842 Y96.221 E7.54651
G1 X63.465 Y95.593 E7.57087
G1 X63.291 Y95.27 E7.58308
G1 X63.036 Y94.752 E7.60228
G1 X62.668 Y93.757 E7.63756
G1 X62.558 Y93.384 E7.6505
G1 X62.373 Y92.617 E7.67674
G1 X62.275 Y91.924 E7.70002
G1 X62.238 Y91.539 E7.71288
G1 X62.202 Y90.793 E7.73772
G1 X62.201 Y64.787 E8.60269
G1 X62.243 Y63.978 E8.62963
G1 X62.282 Y63.604 E8.64214
G1 X62.404 Y62.824 E8.6684
G1 X62.563 Y62.19 E8.69014
G1 X62.673 Y61.82 E8.70297
G1 X63.037 Y60.842 E8.73768
G1 X63.292 Y60.324 E8.75689
G1 X63.466 Y60.001 E8.76909
G1 X63.855 Y59.355 E8.79417
G1 X64.303 Y58.748 E8.81926
G1 X64.539 Y58.459 E8.83167
G0 F6000 X64.849 Y58.712
G1 F1200 X65.363 Y58.145 E8.85712
G1 X65.901 Y57.658 E8.88126
G1 X66.191 Y57.42 E8.89374
G1 X66.799 Y56.971 E8.91888
G1 X67.433 Y56.593 E8.94343
G1 X67.77 Y56.414 E8.95612
G1 X68.467 Y56.089 E8.9817
G1 X69.146 Y55.852 E9.00562
G1 X69.522 Y55.741 E9.01866
G1 X70.27 Y55.562 E9.04424
G1 X70.866 Y55.476 E9.06427
G1 X71.258 Y55.436 E9.07737
G1 X72.009 Y55.398 E9.10238
G1 X148.032 Y55.397 E11.63092
G1 X148.768 Y55.434 E11.65543
G1 X149.118 Y55.469 E11.66713
G1 X150.044 Y55.621 E11.69834
G1 X150.562 Y55.759 E11.71617
G1 X150.936 Y55.873 E11.72917
G1 X151.659 Y56.135 E11.75475
G1 X152.289 Y56.437 E11.77799
G1 X152.61 Y56.61 E11.79012
G1 X153.222 Y56.979 E11.81388
G1 X153.809 Y57.414 E11.83818
G1 X154.098 Y57.651 E11.85062
G1 X154.654 Y58.155 E11.87558
G1 X155.155 Y58.711 E11.90047
G1 X155.394 Y59.004 E11.91304
G1 X155.829 Y59.594 E11.93742
G1 X156.207 Y60.228 E11.96197
G1 X156.386 Y60.565 E11.97467
G1 X156.711 Y61.262 E12.00025
G1 X156.948 Y61.939 E12.0241
G1 X157.06 Y62.318 E12.03725
G1 X157.239 Y63.066 E12.06283
G1 X157.326 Y63.677 E12.08335
G1 X157.363 Y64.046 E12.09569
G1 X157.4 Y64.784 E12.12027
G1 X157.4 Y90.842 E12.98696
G1 X157.364 Y91.574 E13.01133
G1 X157.33 Y91.916 E13.02277
G1 X157.214 Y92.676 E13.04834
G1 X157.062 Y93.282 E13.06912
G1 X156.952 Y93.654 E13.08202
G1 X156.604 Y94.593 E13.11533
G1 X156.365 Y95.079 E13.13334
G1 X156.193 Y95.399 E13.14542
G1 X155.82 Y96.019 E13.16949
G1 X155.385 Y96.606 E13.19379
G1 X155.148 Y96.895 E13.20622
G1 X154.63 Y97.464 E13.23181
G1 X154.141 Y97.906 E13.25373
G1 X153.835 Y98.159 E13.26694
G1 X153.296 Y98.565 E13.28938
G1 X152.581 Y98.999 E13.3172
G1 X152.241 Y99.18 E13.33001
G1 X151.545 Y99.506 E13.35558
G1 X150.851 Y99.748 E13.38002
G1 X150.47 Y99.86 E13.39323
G1 X149.722 Y100.038 E13.4188
G1 X149.11 Y100.124 E13.43936
G1 X148.735 Y100.161 E13.45189
G1 X148.008 Y100.197 E13.4761
G1 X71.987 Y100.196 E16.00457
G1 X71.241 Y100.158 E16.02942
G1 X70.866 Y100.12 E16.04195
G1 X70.106 Y100.003 E16.06753
G1 X69.455 Y99.837 E16.08987
G1 X69.071 Y99.72 E16.10322
G1 X68.348 Y99.458 E16.1288
G1 X67.721 Y99.157 E16.15193
G1 X67.394 Y98.981 E16.16429
G1 X66.693 Y98.552 E16.19162
G1 X66.19 Y98.174 E16.21255
G1 X65.9 Y97.936 E16.22503
G1 X65.347 Y97.434 E16.24987
G1 X64.848 Y96.882 E16.27462
G1 X64.612 Y96.593 E16.28703
G1 X64.175 Y95.999 E16.31155
G1 X63.817 Y95.404 E16.33465
G1 X63.643 Y95.081 E16.34685
G1 X63.401 Y94.588 E16.36512
G1 X63.051 Y93.644 E16.3986
G1 X62.941 Y93.271 E16.41154
G1 X62.762 Y92.523 E16.43712
G1 X62.673 Y91.886 E16.45851
G1 X62.636 Y91.501 E16.47138
G1 X62.602 Y90.793 E16.49495
G1 X62.601 Y64.787 E17.35991
G1 X62.641 Y64.02 E17.38546
G1 X62.68 Y63.646 E17.39797
G1 X62.799 Y62.886 E17.42355
G1 X62.947 Y62.304 E17.44353
G1 X63.057 Y61.934 E17.45636
G1 X63.402 Y61.006 E17.48929
G1 X63.644 Y60.513 E17.50756
G1 X63.818 Y60.19 E17.51976
G1 X64.188 Y59.577 E17.54358
G1 X64.613 Y59.001 E17.56738
G1 X64.849 Y58.712 E17.57979
G0 F6000 X65.159 Y58.965
G1 F1200 X65.646 Y58.428 E17.60391
G1 X66.155 Y57.967 E17.62675
G1 X66.445 Y57.729 E17.63922
G1 X67.021 Y57.304 E17.66303
G1 X67.62 Y56.946 E17.68624
G1 X67.957 Y56.767 E17.69893
G1 X68.636 Y56.452 E17.72383
G1 X69.259 Y56.235 E17.74577
G1 X69.635 Y56.124 E17.75881
G1 X70.363 Y55.951 E17.7837
G1 X70.906 Y55.874 E17.80194
G1 X71.298 Y55.834 E17.81505
G1 X72.009 Y55.798 E17.83872
G1 X148.032 Y55.797 E20.36726
G1 X148.729 Y55.832 E20.39047
G1 X149.079 Y55.867 E20.40217
G1 X149.955 Y56.011 E20.4317
G1 X150.445 Y56.141 E20.44856
G1 X150.819 Y56.255 E20.46156
G1 X151.522 Y56.511 E20.48645
G1 X152.099 Y56.789 E20.50775
G1 X152.42 Y56.962 E20.51988
G1 X153 Y57.312 E20.54241
G1 X153.556 Y57.723 E20.56541
G1 X153.845 Y57.96 E20.57784
G1 X154.371 Y58.438 E20.60148
G1 X154.845 Y58.963 E20.625
G1 X155.084 Y59.256 E20.63758
G1 X155.496 Y59.816 E20.6607
G1 X155.854 Y60.415 E20.68391
G1 X156.033 Y60.752 E20.6966
G1 X156.348 Y61.431 E20.7215
G1 X156.564 Y62.052 E20.74337
G1 X156.676 Y62.431 E20.75651
G1 X156.849 Y63.159 E20.7814
G1 X156.928 Y63.717 E20.80014
G1 X156.965 Y64.086 E20.81248
G1 X157 Y64.784 E20.83572
G1 X157 Y90.842 E21.70241
G1 X156.966 Y91.534 E21.72546
G1 X156.932 Y91.876 E21.73689
G1 X156.818 Y92.616 E21.76179
G1 X156.679 Y93.169 E21.78076
G1 X156.569 Y93.541 E21.79366
G1 X156.239 Y94.429 E21.82517
G1 X156.013 Y94.89 E21.84224
G1 X155.841 Y95.21 E21.85433
G1 X155.487 Y95.797 E21.87713
G1 X155.076 Y96.353 E21.90012
G1 X154.839 Y96.642 E21.91255
G1 X154.334 Y97.194 E21.93744
G1 X153.886 Y97.598 E21.9575
G1 X153.58 Y97.851 E21.97071
G1 X153.07 Y98.235 E21.99194
G1 X152.393 Y98.646 E22.01828
G1 X152.053 Y98.827 E22.03109
G1 X151.375 Y99.143 E22.05597
G1 X150.738 Y99.364 E22.0784
G1 X150.357 Y99.476 E22.09161
G1 X149.629 Y99.648 E22.11649
G1 X149.07 Y99.726 E22.13526
G1 X148.695 Y99.763 E22.14779
G1 X148.008 Y99.797 E22.17067
G1 X71.987 Y99.796 E24.69914
G1 X71.281 Y99.76 E24.72265
G1 X70.906 Y99.722 E24.73519
G1 X70.167 Y99.607 E24.76006
G1 X69.572 Y99.454 E24.7805
G1 X69.188 Y99.337 E24.79385
G1 X68.485 Y99.081 E24.81873
G1 X67.91 Y98.805 E24.83995
G1 X67.583 Y98.629 E24.8523
G1 X66.919 Y98.222 E24.8782
G1 X66.444 Y97.865 E24.89796
G1 X66.154 Y97.627 E24.91044
G1 X65.63 Y97.151 E24.93399
G1 X65.158 Y96.629 E24.95739
G1 X64.922 Y96.34 E24.9698
G1 X64.508 Y95.777 E24.99305
G1 X64.169 Y95.214 E25.01491
G1 X63.995 Y94.891 E25.02711
G1 X63.766 Y94.424 E25.04441
G1 X63.435 Y93.531 E25.07608
G1 X63.325 Y93.158 E25.08902
G1 X63.152 Y92.43 E25.11391
G1 X63.071 Y91.848 E25.13345
G1 X63.034 Y91.463 E25.14631
G1 X63.002 Y90.793 E25.16862
G1 X63.001 Y64.787 E26.03359
G1 X63.039 Y64.061 E26.05777
G1 X63.078 Y63.687 E26.07027
G1 X63.195 Y62.948 E26.09516
G1 X63.33 Y62.418 E26.11335
G1 X63.44 Y62.048 E26.12619
G1 X63.767 Y61.17 E26.15735
G1 X63.996 Y60.703 E26.17465
G1 X64.17 Y60.38 E26.18685
G1 X64.521 Y59.799 E26.20943
G1 X64.923 Y59.254 E26.23195
G1 X65.159 Y58.965 E26.24436
G0 F6000 X65.469 Y59.218
G1 F1200 X65.929 Y58.711 E26.26713
G1 X66.409 Y58.276 E26.28868
G1 X66.699 Y58.038 E26.30116
G1 X67.243 Y57.636 E26.32365
G1 X67.808 Y57.299 E26.34553
G1 X68.145 Y57.12 E26.35823
G1 X68.804 Y56.815 E26.38238
G1 X69.372 Y56.619 E26.40236
G1 X69.748 Y56.508 E26.4154
G1 X70.455 Y56.341 E26.43956
G1 X70.947 Y56.272 E26.45609
G1 X71.339 Y56.232 E26.46919
G1 X72.009 Y56.198 E26.49151
G1 X148.032 Y56.197 E29.02004
G1 X148.689 Y56.23 E29.04192
G1 X149.039 Y56.265 E29.05362
G1 X149.867 Y56.401 E29.08153
G1 X150.328 Y56.524 E29.0974
G1 X150.702 Y56.638 E29.1104
G1 X151.384 Y56.887 E29.13455
G1 X151.909 Y57.141 E29.15395
G1 X152.23 Y57.314 E29.16608
G1 X152.778 Y57.644 E29.18735
G1 X153.302 Y58.033 E29.20906
G1 X153.591 Y58.27 E29.22149
G1 X154.088 Y58.721 E29.24381
G1 X154.535 Y59.216 E29.26599
G1 X154.774 Y59.509 E29.27857
G1 X155.164 Y60.038 E29.30043
G1 X155.501 Y60.603 E29.32231
G1 X155.68 Y60.94 E29.335
G1 X155.985 Y61.599 E29.35915
G1 X156.18 Y62.166 E29.3791
G1 X156.292 Y62.545 E29.39224
G1 X156.46 Y63.251 E29.41638
G1 X156.53 Y63.757 E29.43337
G1 X156.567 Y64.126 E29.4457
G1 X156.6 Y64.784 E29.46762
G1 X156.6 Y90.842 E30.33431
G1 X156.568 Y91.495 E30.35605
G1 X156.534 Y91.837 E30.36748
G1 X156.422 Y92.555 E30.39165
G1 X156.295 Y93.056 E30.40884
G1 X156.185 Y93.428 E30.42175
G1 X155.875 Y94.264 E30.4514
G1 X155.66 Y94.701 E30.4676
G1 X155.488 Y95.021 E30.47968
G1 X155.155 Y95.575 E30.50118
G1 X154.766 Y96.099 E30.52289
G1 X154.529 Y96.388 E30.53532
G1 X154.039 Y96.924 E30.55947
G1 X153.632 Y97.29 E30.57768
G1 X153.326 Y97.543 E30.59089
G1 X152.843 Y97.906 E30.61098
G1 X152.205 Y98.293 E30.6358
G1 X151.865 Y98.474 E30.64861
G1 X151.206 Y98.779 E30.67276
G1 X150.625 Y98.98 E30.69321
G1 X150.244 Y99.092 E30.70642
G1 X149.537 Y99.258 E30.73057
G1 X149.031 Y99.328 E30.74756
G1 X148.656 Y99.365 E30.7601
G1 X148.008 Y99.397 E30.78168
G1 X71.987 Y99.396 E33.31014
G1 X71.322 Y99.362 E33.33229
G1 X70.947 Y99.324 E33.34483
G1 X70.229 Y99.211 E33.369
G1 X69.688 Y99.071 E33.38759
G1 X69.304 Y98.954 E33.40094
G1 X68.622 Y98.705 E33.42509
G1 X68.1 Y98.453 E33.44437
G1 X67.773 Y98.277 E33.45672
G1 X67.146 Y97.893 E33.48117
G1 X66.698 Y97.556 E33.49982
G1 X66.408 Y97.318 E33.5123
G1 X65.913 Y96.868 E33.53455
G1 X65.468 Y96.376 E33.55661
G1 X65.232 Y96.087 E33.56902
G1 X64.84 Y95.555 E33.591
G1 X64.521 Y95.024 E33.6116
G1 X64.347 Y94.701 E33.62381
G1 X64.13 Y94.259 E33.64018
G1 X63.819 Y93.418 E33.67001
G1 X63.709 Y93.045 E33.68294
G1 X63.542 Y92.338 E33.7071
G1 X63.469 Y91.809 E33.72486
G1 X63.432 Y91.424 E33.73773
G1 X63.402 Y90.793 E33.75874
G1 X63.401 Y64.787 E34.6237
G1 X63.437 Y64.102 E34.64652
G1 X63.476 Y63.728 E34.65902
G1 X63.591 Y63.011 E34.68318
G1 X63.714 Y62.532 E34.69962
G1 X63.824 Y62.162 E34.71246
G1 X64.131 Y61.335 E34.7418
G1 X64.348 Y60.893 E34.75818
G1 X64.522 Y60.57 E34.77038
G1 X64.853 Y60.021 E34.7917
G1 X65.233 Y59.507 E34.81296
G1 X65.469 Y59.218 E34.82537
G0 F6000 X65.779 Y59.471
G1 F1200 X66.212 Y58.994 E34.8468
G1 X66.663 Y58.585 E34.86705
G1 X66.953 Y58.347 E34.87953
G1 X67.465 Y57.969 E34.9007
G1 X67.996 Y57.652 E34.92127
G1 X68.333 Y57.473 E34.93396
G1 X68.972 Y57.179 E34.95735
G1 X69.486 Y57.003 E34.97542
G1 X69.862 Y56.892 E34.98846
G1 X70.547 Y56.731 E35.01187
G1 X70.988 Y56.67 E35.02667
G1 X71.38 Y56.63 E35.03978
G1 X72.009 Y56.598 E35.06073
G1 X148.032 Y56.597 E37.58926
G1 X148.649 Y56.628 E37.60981
G1 X148.999 Y56.663 E37.62151
G1 X149.778 Y56.791 E37.64777
G1 X150.212 Y56.906 E37.6627
G1 X150.586 Y57.02 E37.6757
G1 X151.246 Y57.264 E37.69911
G1 X151.719 Y57.493 E37.71659
G1 X152.04 Y57.666 E37.72871
G1 X152.556 Y57.977 E37.74875
G1 X153.048 Y58.342 E37.76913
G1 X153.337 Y58.579 E37.78156
G1 X153.805 Y59.004 E37.80258
G1 X154.225 Y59.469 E37.82343
G1 X154.464 Y59.762 E37.836
G1 X154.831 Y60.26 E37.85658
G1 X155.148 Y60.791 E37.87715
G1 X155.327 Y61.128 E37.88984
G1 X155.621 Y61.767 E37.91323
G1 X155.797 Y62.279 E37.93124
G1 X155.909 Y62.658 E37.94438
G1 X156.07 Y63.343 E37.96779
G1 X156.132 Y63.796 E37.983
G1 X156.169 Y64.165 E37.99533
G1 X156.2 Y64.784 E38.01594
G1 X156.2 Y90.842 E38.88264
G1 X156.17 Y91.455 E38.90305
G1 X156.136 Y91.797 E38.91448
G1 X156.026 Y92.493 E38.93792
G1 X155.912 Y92.942 E38.95332
G1 X155.802 Y93.314 E38.96623
G1 X155.51 Y94.1 E38.99411
G1 X155.308 Y94.511 E39.00935
G1 X155.136 Y94.831 E39.02143
G1 X154.822 Y95.353 E39.04169
G1 X154.457 Y95.845 E39.06207
G1 X154.22 Y96.134 E39.0745
G1 X153.744 Y96.653 E39.09792
G1 X153.377 Y96.981 E39.11429
G1 X153.071 Y97.234 E39.1275
G1 X152.616 Y97.576 E39.14643
G1 X152.017 Y97.94 E39.16974
G1 X151.677 Y98.121 E39.18255
G1 X151.038 Y98.416 E39.20596
G1 X150.513 Y98.596 E39.22442
G1 X150.132 Y98.708 E39.23763
G1 X149.446 Y98.868 E39.26106
G1 X148.992 Y98.93 E39.2763
G1 X148.617 Y98.967 E39.28883
G1 X148.008 Y98.997 E39.30911
G1 X71.987 Y98.996 E41.83758
G1 X71.362 Y98.964 E41.85839
G1 X70.987 Y98.926 E41.87093
G1 X70.292 Y98.816 E41.89433
G1 X69.805 Y98.689 E41.91107
G1 X69.421 Y98.572 E41.92443
G1 X68.76 Y98.329 E41.94785
G1 X68.29 Y98.1 E41.96524
G1 X67.963 Y97.924 E41.97759
G1 X67.373 Y97.563 E42.00059
G1 X66.952 Y97.247 E42.0181
G1 X66.662 Y97.009 E42.03058
G1 X66.196 Y96.585 E42.05154
G1 X65.778 Y96.123 E42.07226
G1 X65.542 Y95.834 E42.08467
G1 X65.173 Y95.333 E42.10536
G1 X64.874 Y94.834 E42.12471
G1 X64.7 Y94.511 E42.13691
G1 X64.495 Y94.095 E42.15234
G1 X64.202 Y93.305 E42.18036
G1 X64.092 Y92.932 E42.1933
G1 X63.932 Y92.246 E42.21673
G1 X63.867 Y91.771 E42.23267
G1 X63.83 Y91.386 E42.24554
G1 X63.802 Y90.793 E42.26528
G1 X63.801 Y64.787 E43.13024
G1 X63.834 Y64.144 E43.15166
G1 X63.873 Y63.77 E43.16417
G1 X63.986 Y63.075 E43.18758
G1 X64.097 Y62.646 E43.20232
G1 X64.207 Y62.276 E43.21516
G1 X64.496 Y61.499 E43.24273
G1 X64.701 Y61.083 E43.25816
G1 X64.875 Y60.76 E43.27036
G1 X65.186 Y60.243 E43.29043
G1 X65.543 Y59.76 E43.31041
G1 X65.779 Y59.471 E43.32282
G0 F6000 X66.089 Y59.724
G1 F1200 X66.495 Y59.277 E43.3429
G1 X66.916 Y58.895 E43.36181
G1 X67.206 Y58.657 E43.37429
G1 X67.687 Y58.302 E43.39417
G1 X68.183 Y58.006 E43.41338
G1 X68.52 Y57.827 E43.42607
G1 X69.139 Y57.543 E43.44872
G1 X69.599 Y57.386 E43.46489
G1 X69.975 Y57.275 E43.47793
G1 X70.638 Y57.121 E43.50057
G1 X71.028 Y57.068 E43.51366
G1 X71.42 Y57.028 E43.52676
G1 X72.009 Y56.998 E43.54638
G1 X148.032 Y56.997 E46.07492
G1 X148.609 Y57.026 E46.09413
G1 X148.959 Y57.061 E46.10583
G1 X149.689 Y57.181 E46.13044
G1 X150.095 Y57.289 E46.14441
G1 X150.469 Y57.403 E46.15741
G1 X151.108 Y57.639 E46.18007
G1 X151.53 Y57.845 E46.19569
G1 X151.851 Y58.018 E46.20782
