;FLAVOR:Marlin
;TIME:5446
;Filament used: 3.46703m
;Layer height: 0.16
;MINX:59.509
;MINY:40.855
;MINZ:0.2
;MAXX:161.508
;MAXY:92.854
;MAXZ:11.2
;Generated with Creality Slicer 4.8.2-205
M140 S60
M105
M190 S60
M104 S200
M105
M109 S200
M82 ;absolute extrusion mode

G28 ;Home

G92 E0 ;Reset Extruder
G1 Z2.0 F3000 ;Move Z Axis up
G1 X10.1 Y20 Z0.28 F5000.0 ;Move to start position
G1 X10.1 Y200.0 Z0.28 F1500.0 E15 ;Draw the first line
G1 X10.4 Y200.0 Z0.28 F5000.0 ;Move to side a little
G1 X10.4 Y20 Z0.28 F1500.0 E30 ;Draw the second line
G92 E0 ;Reset Extruder
G1 Z2.0 F3000 ;Move Z Axis up

G92 E0
G92 E0
G1 F2400 E-0.8
;LAYER_COUNT:57
;LAYER:0
M107
G0 F6000 X62.235 Y45.909 Z0.2
;TYPE:SKIRT
G1 F2400 E0
G1 F1200 X62.362 Y45.749 E0.00679
G1 X62.894 Y45.129 E0.03397
G1 X63.073 Y44.935 E0.04275
G1 X64.052 Y43.997 E0.08784
G1 X64.413 Y43.7 E0.10339
G1 X64.609 Y43.546 E0.11168
G1 X65.37 Y42.999 E0.14285
G1 X66.072 Y42.575 E0.17013
G1 X66.247 Y42.478 E0.17678
G1 X66.639 Y42.271 E0.19153
G1 X66.82 Y42.18 E0.19827
G1 X67.675 Y41.795 E0.22945
G1 X68.282 Y41.572 E0.25096
G1 X68.363 Y41.545 E0.2538
G1 X68.79 Y41.413 E0.26867
G1 X69.067 Y41.333 E0.27826
G1 X69.978 Y41.111 E0.30944
G1 X71.04 Y40.954 E0.34515
G1 X71.395 Y40.919 E0.35701
G1 X72.132 Y40.871 E0.38158
G1 X72.486 Y40.86 E0.39336
G1 X72.828 Y40.855 E0.40473
G1 X147.818 Y40.855 E2.89891
G1 X148.674 Y40.866 E2.92738
G1 X149.249 Y40.889 E2.94652
G1 X149.369 Y40.897 E2.95052
G1 X149.961 Y40.953 E2.9703
G1 X150.225 Y40.985 E2.97915
G1 X151.15 Y41.137 E3.01033
G1 X151.718 Y41.272 E3.02974
G1 X151.835 Y41.303 E3.03377
G1 X152.39 Y41.466 E3.05301
G1 X152.626 Y41.542 E3.06125
G1 X153.92 Y42.051 E3.1075
G1 X154.031 Y42.103 E3.11158
G1 X154.66 Y42.422 E3.13504
G1 X154.904 Y42.556 E3.1443
G1 X155.706 Y43.042 E3.17549
G1 X156.458 Y43.59 E3.20643
G1 X156.644 Y43.738 E3.21434
G1 X157.289 Y44.294 E3.24266
G1 X157.462 Y44.455 E3.25052
G1 X158.121 Y45.122 E3.28171
G1 X158.554 Y45.631 E3.30394
G1 X158.743 Y45.867 E3.31399
G1 X159.298 Y46.623 E3.34518
G1 X159.793 Y47.438 E3.3769
G1 X159.902 Y47.636 E3.38442
G1 X160.332 Y48.505 E3.41667
G1 X160.451 Y48.775 E3.42648
G1 X160.792 Y49.648 E3.45765
G1 X160.959 Y50.179 E3.47617
G1 X161.035 Y50.444 E3.48533
G1 X161.255 Y51.355 E3.51651
G1 X161.379 Y52.132 E3.54268
G1 X161.395 Y52.262 E3.54703
G1 X161.436 Y52.659 E3.56031
G1 X161.457 Y52.902 E3.56842
G1 X161.495 Y53.577 E3.59091
G1 X161.505 Y53.982 E3.60438
G1 X161.508 Y54.254 E3.61343
G1 X161.508 Y79.307 E4.44669
G1 X161.498 Y80.012 E4.47014
G1 X161.475 Y80.588 E4.48932
G1 X161.468 Y80.693 E4.49282
G1 X161.409 Y81.306 E4.5133
G1 X161.374 Y81.59 E4.52282
G1 X161.22 Y82.516 E4.55404
G1 X161.087 Y83.073 E4.57309
G1 X161.058 Y83.182 E4.57684
G1 X160.899 Y83.725 E4.59566
G1 X160.814 Y83.989 E4.60488
G1 X160.488 Y84.869 E4.63609
G1 X160.165 Y85.57 E4.66176
G1 X160.105 Y85.689 E4.6662
G1 X159.94 Y86.004 E4.67802
G1 X159.82 Y86.224 E4.68636
G1 X159.336 Y87.028 E4.71757
G1 X158.762 Y87.817 E4.75002
G1 X158.62 Y87.995 E4.7576
G1 X158.011 Y88.695 E4.78846
G1 X157.835 Y88.881 E4.79697
G1 X157.162 Y89.535 E4.82819
G1 X156.694 Y89.928 E4.84851
G1 X156.459 Y90.115 E4.8585
G1 X155.701 Y90.668 E4.88971
G1 X154.94 Y91.13 E4.91932
G1 X154.572 Y91.331 E4.93327
G1 X154.358 Y91.443 E4.9413
G1 X153.509 Y91.842 E4.9725
G1 X152.562 Y92.189 E5.00605
G1 X152.152 Y92.314 E5.0203
G1 X151.907 Y92.384 E5.02878
G1 X150.995 Y92.603 E5.05997
G1 X150.424 Y92.699 E5.07923
G1 X150.332 Y92.712 E5.08232
G1 X149.789 Y92.775 E5.1005
G1 X149.514 Y92.8 E5.10969
G1 X148.882 Y92.839 E5.13075
G1 X148.448 Y92.85 E5.14519
G1 X148.039 Y92.854 E5.15879
G1 X73.027 Y92.853 E7.6537
G1 X72.479 Y92.845 E7.67193
G1 X71.814 Y92.815 E7.69407
G1 X71.283 Y92.775 E7.71178
G1 X70.351 Y92.665 E7.74299
G1 X69.049 Y92.372 E7.78738
G1 X68.828 Y92.308 E7.79503
G1 X68.344 Y92.156 E7.81191
G1 X68.2 Y92.107 E7.81697
G1 X67.326 Y91.767 E7.84816
G1 X66.689 Y91.463 E7.87163
G1 X66.488 Y91.359 E7.87916
G1 X65.698 Y90.907 E7.90943
G1 X65.478 Y90.769 E7.91807
G1 X64.705 Y90.238 E7.94926
G1 X64.226 Y89.855 E7.96966
G1 X64.001 Y89.665 E7.97945
G1 X63.311 Y89.03 E8.01064
G1 X62.768 Y88.445 E8.03719
G1 X62.699 Y88.365 E8.0407
G1 X62.439 Y88.053 E8.05421
G1 X62.275 Y87.848 E8.06294
G1 X61.721 Y87.091 E8.09414
G1 X61.224 Y86.273 E8.12598
G1 X61.074 Y86 E8.13634
G1 X60.616 Y85.063 E8.17103
G1 X60.537 Y84.88 E8.17766
G1 X60.202 Y84.004 E8.20885
G1 X60.062 Y83.552 E8.22459
G1 X59.982 Y83.273 E8.23424
G1 X59.762 Y82.361 E8.26545
G1 X59.636 Y81.568 E8.29215
G1 X59.623 Y81.461 E8.29574
G1 X59.584 Y81.08 E8.30848
G1 X59.56 Y80.802 E8.31776
G1 X59.523 Y80.169 E8.33885
G1 X59.513 Y79.818 E8.35052
G1 X59.509 Y79.505 E8.36094
G1 X59.51 Y54.349 E9.19763
G1 X59.52 Y53.652 E9.22081
G1 X59.573 Y52.722 E9.2518
G1 X59.606 Y52.39 E9.26289
G1 X59.738 Y51.462 E9.29407
G1 X59.885 Y50.79 E9.31695
G1 X59.917 Y50.663 E9.3213
G1 X60.114 Y49.979 E9.34498
G1 X60.2 Y49.712 E9.35431
G1 X60.525 Y48.832 E9.38551
G1 X60.831 Y48.165 E9.40992
G1 X60.882 Y48.063 E9.41371
G1 X61.105 Y47.64 E9.42961
G1 X61.235 Y47.406 E9.43852
G1 X61.725 Y46.606 E9.46972
G1 X62.235 Y45.909 E9.49845
G0 F6000 X62.549 Y46.158
G1 F1200 X62.676 Y45.998 E9.50524
G1 X63.188 Y45.4 E9.53142
G1 X63.367 Y45.206 E9.5402
G1 X64.31 Y44.302 E9.58365
G1 X64.66 Y44.015 E9.59871
G1 X64.856 Y43.861 E9.607
G1 X65.604 Y43.324 E9.63762
G1 X66.266 Y42.925 E9.66333
G1 X66.441 Y42.828 E9.66999
G1 X66.819 Y42.629 E9.68419
G1 X67 Y42.538 E9.69093
G1 X67.839 Y42.16 E9.72154
G1 X68.409 Y41.952 E9.74172
G1 X68.901 Y41.797 E9.75888
G1 X69.178 Y41.717 E9.76847
G1 X70.073 Y41.5 E9.7991
G1 X71.079 Y41.352 E9.83292
G1 X71.434 Y41.317 E9.84478
G1 X72.145 Y41.271 E9.86848
G1 X72.499 Y41.26 E9.88026
G1 X72.828 Y41.255 E9.8912
G1 X147.818 Y41.255 E12.38538
G1 X148.669 Y41.266 E12.41369
G1 X149.222 Y41.288 E12.43209
G1 X149.342 Y41.296 E12.43609
G1 X149.913 Y41.35 E12.45517
G1 X150.177 Y41.382 E12.46401
G1 X151.085 Y41.532 E12.49462
G1 X151.616 Y41.659 E12.51278
G1 X151.733 Y41.69 E12.51681
G1 X152.267 Y41.846 E12.53531
G1 X152.503 Y41.922 E12.54356
G1 X153.751 Y42.413 E12.58816
G1 X153.862 Y42.465 E12.59224
G1 X154.467 Y42.773 E12.61482
G1 X154.711 Y42.907 E12.62408
G1 X155.498 Y43.385 E12.65471
G1 X156.209 Y43.903 E12.68396
G1 X156.395 Y44.051 E12.69187
G1 X157.016 Y44.586 E12.71913
G1 X157.189 Y44.747 E12.72699
G1 X157.835 Y45.403 E12.75761
G1 X158.242 Y45.881 E12.77849
G1 X158.431 Y46.117 E12.78855
G1 X158.975 Y46.86 E12.81918
G1 X159.443 Y47.631 E12.84918
G1 X159.552 Y47.829 E12.85669
G1 X159.966 Y48.666 E12.88775
G1 X160.085 Y48.936 E12.89757
G1 X160.419 Y49.794 E12.92819
G1 X160.574 Y50.289 E12.94544
G1 X160.65 Y50.554 E12.95461
G1 X160.865 Y51.449 E12.98523
G1 X160.982 Y52.181 E13.00988
G1 X160.998 Y52.311 E13.01424
G1 X161.038 Y52.693 E13.02701
G1 X161.059 Y52.936 E13.03512
G1 X161.095 Y53.587 E13.05681
G1 X161.105 Y53.992 E13.07028
G1 X161.108 Y54.254 E13.079
G1 X161.108 Y79.301 E13.91207
G1 X161.098 Y80.006 E13.93552
G1 X161.076 Y80.561 E13.95399
G1 X161.069 Y80.666 E13.95749
G1 X161.012 Y81.258 E13.97727
G1 X160.977 Y81.542 E13.98679
G1 X160.825 Y82.45 E14.01741
G1 X160.701 Y82.97 E14.03519
G1 X160.672 Y83.079 E14.03894
G1 X160.518 Y83.603 E14.05711
G1 X160.433 Y83.867 E14.06633
G1 X160.113 Y84.73 E14.09694
G1 X159.808 Y85.39 E14.12113
G1 X159.748 Y85.509 E14.12556
G1 X159.589 Y85.813 E14.13697
G1 X159.469 Y86.033 E14.1453
G1 X158.993 Y86.821 E14.17592
G1 X158.449 Y87.567 E14.20663
G1 X158.307 Y87.745 E14.21421
G1 X157.72 Y88.42 E14.24396
G1 X157.544 Y88.606 E14.25248
G1 X156.883 Y89.247 E14.2831
G1 X156.445 Y89.615 E14.30213
G1 X156.21 Y89.802 E14.31212
G1 X155.466 Y90.344 E14.34273
G1 X154.746 Y90.78 E14.37073
G1 X154.386 Y90.977 E14.38438
G1 X154.172 Y91.089 E14.39241
G1 X153.339 Y91.48 E14.42302
G1 X152.441 Y91.807 E14.4548
G1 X152.042 Y91.929 E14.46868
G1 X151.797 Y91.999 E14.47715
G1 X150.902 Y92.213 E14.50776
G1 X150.368 Y92.303 E14.52577
G1 X150.276 Y92.316 E14.52886
G1 X149.753 Y92.376 E14.54637
G1 X149.478 Y92.401 E14.55556
G1 X148.869 Y92.439 E14.57585
G1 X148.444 Y92.45 E14.58999
G1 X148.039 Y92.454 E14.60346
G1 X73.033 Y92.453 E17.09817
G1 X72.485 Y92.445 E17.1164
G1 X71.844 Y92.416 E17.13774
G1 X71.313 Y92.376 E17.15545
G1 X70.399 Y92.267 E17.18607
G1 X69.16 Y91.988 E17.22831
G1 X68.939 Y91.924 E17.23596
G1 X68.473 Y91.777 E17.25221
G1 X68.329 Y91.728 E17.25727
G1 X67.471 Y91.394 E17.2879
G1 X66.873 Y91.107 E17.30996
G1 X66.672 Y91.003 E17.31749
G1 X65.91 Y90.569 E17.34665
G1 X65.69 Y90.431 E17.35529
G1 X64.932 Y89.908 E17.38592
G1 X64.484 Y89.55 E17.40499
G1 X64.259 Y89.36 E17.41479
G1 X63.582 Y88.736 E17.44541
G1 X63.071 Y88.184 E17.47043
G1 X63.002 Y88.104 E17.47394
G1 X62.752 Y87.803 E17.48696
G1 X62.588 Y87.598 E17.49569
G1 X62.044 Y86.855 E17.52632
G1 X61.575 Y86.08 E17.55645
G1 X61.425 Y85.807 E17.56681
G1 X60.983 Y84.904 E17.60025
G1 X60.904 Y84.721 E17.60688
G1 X60.447 Y83.442 E17.65205
G1 X60.367 Y83.163 E17.6617
G1 X60.152 Y82.268 E17.69232
G1 X60.033 Y81.519 E17.71754
G1 X60.02 Y81.412 E17.72113
G1 X59.982 Y81.046 E17.73337
G1 X59.958 Y80.768 E17.74265
G1 X59.923 Y80.158 E17.76297
G1 X59.913 Y79.807 E17.77465
G1 X59.909 Y79.505 E17.78469
G1 X59.91 Y54.355 E18.62118
G1 X59.92 Y53.658 E18.64437
G1 X59.971 Y52.762 E18.67422
G1 X60.004 Y52.43 E18.68532
G1 X60.135 Y51.518 E18.71596
G1 X60.273 Y50.888 E18.73741
G1 X60.305 Y50.761 E18.74177
G1 X60.494 Y50.101 E18.7646
G1 X60.58 Y49.834 E18.77393
G1 X60.901 Y48.971 E18.80456
G1 X61.189 Y48.344 E18.8275
G1 X61.24 Y48.242 E18.8313
G1 X61.455 Y47.834 E18.84664
G1 X61.585 Y47.6 E18.85554
G1 X62.067 Y46.816 E18.88615
G1 X62.549 Y46.158 E18.91328
G0 F6000 X62.862 Y46.407
G1 F1200 X62.989 Y46.247 E18.92007
G1 X63.482 Y45.671 E18.94529
G1 X63.661 Y45.477 E18.95407
G1 X64.568 Y44.607 E18.99587
G1 X64.907 Y44.33 E19.01043
G1 X65.103 Y44.176 E19.01872
G1 X65.837 Y43.65 E19.04876
G1 X66.46 Y43.275 E19.07294
G1 X66.635 Y43.178 E19.0796
G1 X66.998 Y42.986 E19.09325
G1 X67.179 Y42.895 E19.09999
G1 X68.003 Y42.525 E19.13003
G1 X68.535 Y42.331 E19.14887
G1 X68.616 Y42.304 E19.15171
G1 X69.012 Y42.182 E19.16549
G1 X69.289 Y42.102 E19.17508
G1 X70.167 Y41.89 E19.20512
G1 X71.118 Y41.75 E19.23709
G1 X71.473 Y41.715 E19.24896
G1 X72.157 Y41.671 E19.27175
G1 X72.511 Y41.66 E19.28353
G1 X72.828 Y41.655 E19.29408
G1 X147.818 Y41.655 E21.78826
G1 X148.663 Y41.666 E21.81636
G1 X149.195 Y41.688 E21.83407
G1 X149.315 Y41.696 E21.83807
G1 X149.864 Y41.747 E21.85641
G1 X150.128 Y41.779 E21.86526
G1 X151.019 Y41.927 E21.8953
G1 X151.513 Y42.045 E21.91219
G1 X151.63 Y42.076 E21.91622
G1 X152.145 Y42.227 E21.93407
G1 X152.381 Y42.303 E21.94231
G1 X153.581 Y42.775 E21.9852
G1 X153.692 Y42.827 E21.98928
G1 X154.275 Y43.124 E22.01104
G1 X154.519 Y43.258 E22.0203
G1 X155.291 Y43.727 E22.05034
G1 X155.96 Y44.216 E22.0779
G1 X156.146 Y44.364 E22.08581
G1 X156.744 Y44.879 E22.11206
G1 X156.917 Y45.04 E22.11992
G1 X157.55 Y45.684 E22.14995
G1 X157.93 Y46.131 E22.16947
G1 X158.119 Y46.367 E22.17952
G1 X158.651 Y47.096 E22.20954
G1 X159.092 Y47.824 E22.23785
G1 X159.201 Y48.022 E22.24537
G1 X159.6 Y48.827 E22.27525
G1 X159.719 Y49.097 E22.28506
G1 X160.046 Y49.939 E22.31511
G1 X160.19 Y50.399 E22.33114
G1 X160.266 Y50.664 E22.34031
G1 X160.476 Y51.542 E22.37033
G1 X160.585 Y52.23 E22.3935
G1 X160.601 Y52.36 E22.39786
G1 X160.639 Y52.728 E22.41016
G1 X160.66 Y52.971 E22.41827
G1 X160.695 Y53.597 E22.43913
G1 X160.705 Y54.002 E22.4526
G1 X160.708 Y54.254 E22.46098
G1 X160.708 Y79.296 E23.29388
G1 X160.698 Y80.001 E23.31734
G1 X160.676 Y80.534 E23.33508
G1 X160.669 Y80.639 E23.33858
G1 X160.615 Y81.209 E23.35762
G1 X160.58 Y81.493 E23.36714
G1 X160.43 Y82.383 E23.39716
G1 X160.314 Y82.868 E23.41374
G1 X160.285 Y82.977 E23.4175
G1 X160.137 Y83.48 E23.43493
G1 X160.052 Y83.744 E23.44416
G1 X159.738 Y84.591 E23.4742
G1 X159.451 Y85.21 E23.4969
G1 X159.391 Y85.329 E23.50133
G1 X159.238 Y85.621 E23.51229
G1 X159.118 Y85.841 E23.52063
G1 X158.65 Y86.614 E23.55068
G1 X158.137 Y87.318 E23.57966
G1 X157.995 Y87.496 E23.58723
G1 X157.43 Y88.146 E23.61587
G1 X157.254 Y88.332 E23.62439
G1 X156.605 Y88.959 E23.65441
G1 X156.196 Y89.302 E23.67216
G1 X155.961 Y89.489 E23.68215
G1 X155.23 Y90.02 E23.7122
G1 X154.553 Y90.43 E23.73852
G1 X154.201 Y90.622 E23.75186
G1 X153.987 Y90.734 E23.75989
G1 X153.169 Y91.117 E23.78993
G1 X152.321 Y91.426 E23.81995
G1 X151.932 Y91.545 E23.83348
G1 X151.687 Y91.615 E23.84196
G1 X150.809 Y91.824 E23.87198
G1 X150.312 Y91.907 E23.88874
G1 X150.22 Y91.92 E23.89183
G1 X149.716 Y91.978 E23.9087
G1 X149.441 Y92.003 E23.91788
G1 X148.856 Y92.039 E23.93738
G1 X148.44 Y92.05 E23.95122
G1 X148.039 Y92.054 E23.96456
G1 X73.039 Y92.053 E26.45907
G1 X72.491 Y92.045 E26.4773
G1 X71.874 Y92.017 E26.49784
G1 X71.343 Y91.977 E26.51555
G1 X70.446 Y91.87 E26.5456
G1 X69.272 Y91.603 E26.58564
G1 X69.051 Y91.539 E26.59329
G1 X68.602 Y91.398 E26.60894
G1 X68.458 Y91.349 E26.614
G1 X67.617 Y91.021 E26.64403
G1 X67.057 Y90.752 E26.66469
G1 X66.856 Y90.648 E26.67222
G1 X66.123 Y90.23 E26.70028
G1 X65.903 Y90.092 E26.70892
G1 X65.16 Y89.578 E26.73897
G1 X64.742 Y89.244 E26.75677
G1 X64.517 Y89.054 E26.76656
G1 X63.854 Y88.441 E26.79659
G1 X63.374 Y87.923 E26.82008
G1 X63.305 Y87.843 E26.8236
G1 X63.064 Y87.553 E26.83614
G1 X62.9 Y87.348 E26.84487
G1 X62.368 Y86.618 E26.87491
G1 X61.926 Y85.888 E26.9033
G1 X61.776 Y85.615 E26.91366
G1 X61.35 Y84.746 E26.94585
G1 X61.271 Y84.563 E26.95247
G1 X60.831 Y83.331 E26.99599
G1 X60.751 Y83.052 E27.00564
G1 X60.541 Y82.174 E27.03567
G1 X60.43 Y81.471 E27.05934
G1 X60.417 Y81.364 E27.06292
G1 X60.381 Y81.011 E27.07472
G1 X60.357 Y80.733 E27.084
G1 X60.323 Y80.146 E27.10356
G1 X60.313 Y79.795 E27.11524
G1 X60.309 Y79.505 E27.12489
G1 X60.31 Y54.361 E27.96118
G1 X60.32 Y53.664 E27.98436
G1 X60.369 Y52.801 E28.01311
G1 X60.402 Y52.469 E28.02421
G1 X60.531 Y51.575 E28.05425
G1 X60.661 Y50.986 E28.07432
G1 X60.693 Y50.859 E28.07867
G1 X60.875 Y50.224 E28.10064
G1 X60.961 Y49.957 E28.10997
G1 X61.276 Y49.11 E28.14003
G1 X61.547 Y48.522 E28.16156
G1 X61.598 Y48.42 E28.16535
G1 X61.805 Y48.028 E28.1801
G1 X61.935 Y47.794 E28.189
G1 X62.408 Y47.025 E28.21903
G1 X62.862 Y46.407 E28.24454
G1 F2400 E27.44454
;MESH:ZxUkey_NN_1.stl
G0 F6000 X102.582 Y76.189
G0 X102.582 Y78.024
G0 X104.509 Y77.854
;TYPE:WALL-INNER
G1 F2400 E28.24454
G1 F1200 X104.509 Y55.854 E28.97626
G1 X90.509 Y55.854 E29.4419
G1 X90.509 Y77.854 E30.17362
G1 X104.509 Y77.854 E30.63927
G0 F6000 X104.109 Y77.454
G1 F1200 X104.109 Y56.254 E31.34438
G1 X90.909 Y56.254 E31.78341
G1 X90.909 Y77.454 E32.48853
G1 X104.109 Y77.454 E32.92756
G0 F6000 X103.709 Y77.054
;TYPE:WALL-OUTER
G1 F1200 X103.709 Y56.654 E33.60607
G1 X91.309 Y56.654 E34.01849
G1 X91.309 Y77.054 E34.697
G1 X103.709 Y77.054 E35.10943
G1 F2400 E34.30943
G0 F6000 X104.009 Y77.054
G0 X90.313 Y78.05
G0 X90.313 Y80.644
G0 X72.122 Y80.774
;TYPE:WALL-INNER
G1 F2400 E35.10943
G1 F1200 X71.807 Y80.563 E35.12204
G1 X71.589 Y80.237 E35.13508
G1 X71.509 Y79.817 E35.1493
G1 X71.509 Y53.856 E36.01277
G1 X71.585 Y53.474 E36.02572
G1 X71.804 Y53.147 E36.03881
G1 X72.13 Y52.933 E36.05178
G1 X72.545 Y52.854 E36.06583
G1 X148.469 Y52.855 E38.59108
G1 X148.889 Y52.936 E38.6053
G1 X149.212 Y53.151 E38.61821
G1 X149.427 Y53.473 E38.63109
G1 X149.508 Y53.903 E38.64564
G1 X149.509 Y79.797 E39.50688
G1 X149.483 Y80.048 E39.51527
G1 X149.336 Y80.405 E39.52811
G1 X149.057 Y80.683 E39.54121
G1 X148.701 Y80.83 E39.55402
G1 X148.47 Y80.854 E39.56175
G1 X72.524 Y80.854 E42.08772
G1 X72.122 Y80.774 E42.10135
G0 F6000 X72.238 Y81.228
G1 F1200 X71.972 Y81.147 E42.1106
G1 X71.728 Y81.016 E42.11981
G1 X71.523 Y80.848 E42.12863
G1 X71.345 Y80.632 E42.13794
G1 X71.217 Y80.388 E42.1471
G1 X71.138 Y80.128 E42.15614
G1 X71.109 Y79.837 E42.16587
G1 X71.109 Y53.834 E43.03073
G1 X71.136 Y53.573 E43.03946
G1 X71.215 Y53.316 E43.0484
G1 X71.342 Y53.079 E43.05734
G1 X71.52 Y52.863 E43.06665
G1 X71.727 Y52.693 E43.07556
G1 X71.977 Y52.561 E43.08496
G1 X72.233 Y52.483 E43.09386
G1 X72.525 Y52.454 E43.10362
G1 X148.492 Y52.455 E45.6303
G1 X148.779 Y52.485 E45.63989
G1 X149.041 Y52.564 E45.649
